Cagedcarrow/ur10_conrtol/ur_base_xarco_model/assembly_description/replay_data/session_2026-05-01_20-24-59/ur10_ft300_realtime_data.csv
epoch_time,Time,Act_q0,Act_q1,Act_q2,Act_q3,Act_q4,Act_q5,Act_qd0,Act_qd1,Act_qd2,Act_qd3,Act_qd4,Act_qd5,Act_I0,Act_I1,Act_I2,Act_I3,Act_I4,Act_I5,Act_X,Act_Y,Act_Z,Act_RX,Act_RY,Act_RZ,Act_dX,Act_dY,Act_dZ,Act_dRX,Act_dRY,Act_dRZ,Tgt_q0,Tgt_q1,Tgt_q2,Tgt_q3,Tgt_q4,Tgt_q5,Robot_Mode,Safety_Mode,Main_Voltage,Robot_Voltage,Robot_Current,Fx,Fy,Fz,Mx,My,Mz,Label,ur_fresh,ft_fresh
1777638299.6343124,4814.344,2.2038776874542236,0.06395161151885986,-1.7774718443499964,-0.04721385637392217,1.8873671293258667,0.9308245182037354,0.0,0.0,-0.0,0.0,0.0,0.0,0.1419067531824112,5.364990711212158,-0.01569267362356186,0.6908569931983948,0.2063598781824112,0.1390686184167862,0.7195195389563896,-0.5783439973622289,0.8531584726968137,-0.2593871793782871,-0.32103019222975027,1.5790256845127868,0.0,0.0,0.0,0.0,0.0,0.0,2.2038536071777344,0.06393957138061529,-1.7775676886187952,-0.047262016926900685,1.8873192071914673,0.9308844208717346,7.0,1.0,48.01499938964844,48.28900146484375,48.04600143432617,nan,nan,nan,nan,nan,nan,0,1,0
1777638299.6411986,4814.352,2.2038657665252686,0.06389164924621582,-1.7775314489947718,-0.04722577730287725,1.8872712850570679,0.9308125376701355,0.0,0.0,-0.0,0.0,0.0,0.0,0.1831054836511612,5.364990711212158,-0.06052888557314873,0.6998291611671448,0.1951446682214737,0.1390686184167862,0.7194673540304632,-0.5782759689920964,0.8532252420600519,-0.2595156670225988,-0.3209010248100241,1.57901563575849,0.0,0.0,0.0,0.0,0.0,0.0,2.2038536071777344,0.06393957138061529,-1.7775676886187952,-0.047262016926900685,1.8873192071914673,0.9308844208717346,7.0,1.0,48.01499938964844,48.28900146484375,48.04600143432617,nan,nan,nan,nan,nan,nan,0,1,0
1777638299.6485343,4814.36,2.2038536071777344,0.06390368938446045,-1.7774837652789515,-0.04727393785585576,1.887331247329712,0.9308125376701355,0.0,0.0,-0.0,0.0,0.0,0.0,0.2014160305261612,5.378723621368408,-0.04707802087068558,0.7289887070655823,0.1861725002527237,0.1031799390912056,0.719474778081124,-0.5783172523044795,0.8532229780894593,-0.2595137353437807,-0.32096722856910415,1.579002620791915,0.0,0.0,0.0,0.0,0.0,0.0,2.2038536071777344,0.06393957138061529,-1.7775676886187952,-0.047262016926900685,1.8873192071914673,0.9308844208717346,7.0,1.0,48.01499938964844,48.28900146484375,48.04600143432617,nan,nan,nan,nan,nan,nan,0,1,0
1777638299.655534,4814.3679999999995,2.203901529312134,0.06387960910797119,-1.7775433699237269,-0.047237698231832326,1.8873192071914673,0.9307885766029358,0.0,0.0,-0.0,0.0,0.0,0.0,0.1739502102136612,5.360413074493408,-0.033627159893512726,0.7110443711280823,0.2086029201745987,0.1570129543542862,0.7194674693661499,-0.5782432225985815,0.853245601949421,-0.2595531542788849,-0.32095607102667384,1.5790312011480712,0.0,0.0,0.0,0.0,0.0,0.0,2.2038536071777344,0.06393957138061529,-1.7775676886187952,-0.047262016926900685,1.8873192071914673,0.9308844208717346,7.0,1.0,48.01499938964844,48.28900146484375,48.04600143432617,nan,nan,nan,nan,nan,nan,0,1,0
1777638299.6630697,4814.376,2.203913688659668,0.06387960910797119,-1.7774956862079065,-0.047262016926900685,1.8872952461242676,0.9308125376701355,0.0,0.0,-0.0,0.0,0.0,0.0,0.1464843899011612,5.397034168243408,-0.038110777735710144,0.7020722031593323,0.2220611870288849,0.1368255764245987,0.7194991612463913,-0.5782522090985409,0.8532408444694689,-0.25952708928873613,-0.3209338023506636,1.5790642672700543,0.0,0.0,0.0,0.0,0.0,0.0,2.2038536071777344,0.06393957138061529,-1.7775676886187952,-0.047262016926900685,1.8873192071914673,0.9308844208717346,7.0,1.0,48.01499938964844,48.28900146484375,48.04600143432617,nan,nan,nan,nan,nan,nan,0,1,0
1777638299.669748,4814.384,2.2038896083831787,0.06395161151885986,-1.7775314489947718,-0.04719001451601201,1.8873192071914673,0.9307885766029358,0.0,0.0,-0.0,0.0,0.0,0.0,0.2151489406824112,5.383301258087158,-0.06501250714063644,0.7043152451515198,0.1996307522058487,0.1211242824792862,0.7195025611281163,-0.5783087756429854,0.8531607177057441,-0.2594104685997055,-0.3209762845456034,1.579005557408667,0.0,0.0,0.0,0.0,0.0,0.0,2.2038536071777344,0.06393957138061529,-1.7775676886187952,-0.047262016926900685,1.8873192071914673,0.9308844208717346,7.0,1.0,48.0,48.28900146484375,48.04600143432617,nan,nan,nan,nan,nan,nan,0,1,0
1777638299.6776078,4814.392,2.2038776874542236,0.06393957138061523,-1.7775195280658167,-0.04728585878481084,1.887331247329712,0.9308364987373352,0.0,0.0,-0.0,0.0,0.0,0.0,0.1922607570886612,5.374145984649658,-0.033627159893512726,0.7155304551124573,0.1951446682214737,0.1278534084558487,0.7194897718829047,-0.5782908740716225,0.8532069093026999,-0.25952839787301935,-0.32096743524417787,1.5790510232600423,0.0,0.0,0.0,0.0,0.0,0.0,2.2038536071777344,0.06393957138061529,-1.7775676886187952,-0.047262016926900685,1.8873192071914673,0.9308844208717346,7.0,1.0,48.0,48.28900146484375,48.04600143432617,nan,nan,nan,nan,nan,nan,0,1,0
1777638299.6845398,4814.4,2.2038657665252686,0.06395161151885986,-1.7775433699237269,-0.04722577730287725,1.8873192071914673,0.9307885766029358,0.0,0.0,-0.0,0.0,0.0,0.0,0.1831054836511612,5.364990711212158,-0.04259439930319786,0.7536621689796448,0.1772003322839737,0.1345825344324112,0.7194791079049768,-0.5783129392936467,0.8531770520751214,-0.2594657091338457,-0.3209641617748616,1.57898699701991,0.0,0.0,0.0,0.0,0.0,0.0,2.2038536071777344,0.06393957138061529,-1.7775676886187952,-0.047262016926900685,1.8873192071914673,0.9308844208717346,7.0,1.0,48.0,48.28900146484375,48.04600143432617,nan,nan,nan,nan,nan,nan,0,1,0
1777638299.6914718,4814.407999999999,2.2038896083831787,0.06392765045166016,-1.7774837652789515,-0.047262016926900685,1.8873192071914673,0.9307885766029358,0.0,0.0,-0.0,0.0,0.0,0.0,0.1831054836511612,5.383301258087158,-0.06725431978702545,0.7177734971046448,0.2265472710132599,0.1256103664636612,0.7195053196182212,-0.5783126503166931,0.8531948357766352,-0.2594633957709995,-0.3209683479144495,1.579010629546851,0.0,0.0,0.0,0.0,0.0,0.0,2.2038536071777344,0.06393957138061529,-1.7775676886187952,-0.047262016926900685,1.8873192071914673,0.9308844208717346,7.0,1.0,48.0,48.24300003051758,48.04600143432617,nan,nan,nan,nan,nan,nan,0,1,0
1777638299.698774,4814.416,2.2038896083831787,0.06392765045166016,-1.7775314489947718,-0.047237698231832326,1.8872952461242676,0.9307641983032227,0.0,0.0,-0.0,0.0,0.0,0.0,0.1419067531824112,5.360413074493408,-0.06052888557314873,0.7379608750343323,0.1749572902917862,0.1637420803308487,0.7194858693375288,-0.5782919582567712,0.8531960632005102,-0.25948052712132197,-0.32093991711547915,1.5789889519261735,0.0,0.0,0.0,0.0,0.0,0.0,2.2038536071777344,0.06393957138061529,-1.7775676886187952,-0.047262016926900685,1.8873192071914673,0.9308844208717346,7.0,1.0,48.0,48.24300003051758,48.04600143432617,nan,nan,nan,nan,nan,nan,0,1,0
1777638299.706145,4814.424,2.2038896083831787,0.06393957138061523,-1.7774837652789515,-0.04721385637392217,1.887331247329712,0.9308484792709351,0.0,0.0,-0.0,0.0,0.0,0.0,0.1785278469324112,5.378723621368408,-0.04483621194958687,0.7334747910499573,0.2063598781824112,0.1435547024011612,0.7195231107885217,-0.5783125911644413,0.8531714991791979,-0.25941114460678977,-0.3209865507158582,1.579063431552416,0.0,0.0,0.0,0.0,0.0,0.0,2.2038536071777344,0.06393957138061529,-1.7775676886187952,-0.047262016926900685,1.8873192071914673,0.9308844208717346,7.0,1.0,48.0,48.24300003051758,48.06100082397461,nan,nan,nan,nan,nan,nan,0,1,0
1777638299.7131176,4814.432,2.203913688659668,0.06393957138061523,-1.7775314489947718,-0.047262016926900685,1.8873192071914673,0.9308005571365356,0.0,0.0,-0.0,0.0,0.0,0.0,0.1464843899011612,5.392456531524658,-0.07397975027561188,0.7132874131202698,0.1996307522058487,0.1345825344324112,0.719504393432868,-0.5782699147964494,0.8531983804369782,-0.25950193449990766,-0.32096542367970976,1.579049810342633,0.0,0.0,0.0,0.0,0.0,0.0,2.2038536071777344,0.06393957138061529,-1.7775676886187952,-0.047262016926900685,1.8873192071914673,0.9308844208717346,7.0,1.0,48.0,48.24300003051758,48.06100082397461,nan,nan,nan,nan,nan,nan,0,1,0
1777638299.7203717,4814.44,2.2038896083831787,0.06392765045166016,-1.7775314489947718,-0.04727393785585576,1.887331247329712,0.9308125376701355,0.0,0.0,-0.0,0.0,0.0,0.0,0.1510620266199112,5.383301258087158,-0.051561642438173294,0.7514191269874573,0.2198181450366974,0.1659851223230362,0.7194842609262789,-0.5782760653942411,0.853215002393892,-0.2595352532148718,-0.32096946488348965,1.5790404479857407,0.0,0.0,0.0,0.0,0.0,0.0,2.2038536071777344,0.06393957138061529,-1.7775676886187952,-0.047262016926900685,1.8873192071914673,0.9308844208717346,7.0,1.0,48.0,48.24300003051758,48.06100082397461,nan,nan,nan,nan,nan,nan,0,1,0
1777638299.758111,4814.447999999999,2.2038896083831787,0.06393957138061523,-1.7774837652789515,-0.047262016926900685,1.887343168258667,0.9308364987373352,0.0,0.0,-0.0,0.0,0.0,0.0,0.1556396633386612,5.397034168243408,-0.038110777735710144,0.7245026230812073,0.1727142482995987,0.1727142482995987,0.719514410454611,-0.5783088079069365,0.8531890768261869,-0.2594634162874559,-0.3209927179211797,1.5790566459523987,0.0,0.0,0.0,0.0,0.0,0.0,2.2038536071777344,0.06393957138061529,-1.7775676886187952,-0.047262016926900685,1.8873192071914673,0.9308844208717346,7.0,1.0,48.0,48.24300003051758,48.06100082397461,nan,nan,nan,nan,nan,nan,0,1,0
1777638299.758147,4814.456,2.2038657665252686,0.06392765045166016,-1.7775195280658167,-0.04722577730287725,1.8873192071914673,0.9307885766029358,0.0,0.0,-0.0,0.0,0.0,0.0,0.2151489406824112,5.374145984649658,-0.06949612498283386,0.7155304551124573,0.2086029201745987,0.1390686184167862,0.7194796350994098,-0.5783135772746263,0.8531917259866689,-0.2594658228960742,-0.32096412349501585,1.5789871046799733,0.0,0.0,0.0,0.0,0.0,0.0,2.2038536071777344,0.06393957138061529,-1.7775676886187952,-0.047262016926900685,1.8873192071914673,0.9308844208717346,7.0,1.0,48.0,48.24300003051758,48.06100082397461,nan,nan,nan,nan,nan,nan,0,1,0
1777638299.7594335,4814.464,2.2038657665252686,0.06392765045166016,-1.7775314489947718,-0.04725009599794561,1.8873072862625122,0.9308005571365356,0.0,0.0,-0.0,0.0,0.0,0.0,0.1235962063074112,5.351257801055908,-0.04259439930319786,0.7267456650733948,0.1973877102136612,0.1682281643152237,0.71947429589469,-0.578298551652535,0.8532038133598049,-0.2595060697590487,-0.32094387809968655,1.579002607544105,0.0,0.0,0.0,0.0,0.0,0.0,2.2038536071777344,0.06393957138061529,-1.7775676886187952,-0.047262016926900685,1.8873192071914673,0.9308844208717346,7.0,1.0,47.986000061035156,48.24300003051758,48.06100082397461,nan,nan,nan,nan,nan,nan,0,1,0
1777638299.7605488,4814.472,2.2038536071777344,0.06386768817901611,-1.7775195280658167,-0.04727393785585576,1.8873192071914673,0.9308005571365356,0.0,0.0,-0.0,0.0,0.0,0.0,0.1968383938074112,5.387878894805908,-0.035868968814611435,0.7581482529640198,0.2175751030445099,0.1435547024011612,0.7194427856768612,-0.5782765474823238,0.8532634747463963,-0.2595881410580305,-0.3209427085290378,1.578998347538505,0.0,0.0,0.0,0.0,0.0,0.0,2.2038536071777344,0.06393957138061529,-1.7775676886187952,-0.047262016926900685,1.8873192071914673,0.9308844208717346,7.0,1.0,47.986000061035156,48.24300003051758,48.06100082397461,nan,nan,nan,nan,nan,nan,0,1,0
1777638299.7618616,4814.48,2.2038657665252686,0.06390368938446045,-1.7775314489947718,-0.04727393785585576,1.8872952461242676,0.9307885766029358,0.0,0.0,-0.0,0.0,0.0,0.0,0.1281738430261612,5.374145984649658,-0.06052888557314873,0.7446900010108948,0.2063598781824112,0.1323394924402237,0.7194608437719443,-0.5782830797288511,0.8532321806147313,-0.2595542481493385,-0.32092355825125796,1.5789957969659805,0.0,0.0,0.0,0.0,0.0,0.0,2.2038536071777344,0.06393957138061529,-1.7775676886187952,-0.047262016926900685,1.8873192071914673,0.9308844208717346,7.0,1.0,47.986000061035156,48.2130012512207,48.06100082397461,nan,nan,nan,nan,nan,nan,0,1,0
1777638299.7632217,4814.487999999999,2.2038896083831787,0.06391561031341553,-1.7774837652789515,-0.047237698231832326,1.887343168258667,0.9308005571365356,0.0,0.0,-0.0,0.0,0.0,0.0,0.1739502102136612,5.364990711212158,-0.04035259038209915,0.6998291611671448,0.2108459621667862,0.1480407863855362,0.7195020686367211,-0.578307911047461,0.8531992784899126,-0.2594559376572489,-0.3209957275287894,1.5790213050372528,0.0,0.0,0.0,0.0,0.0,0.0,2.2038536071777344,0.06393957138061529,-1.7775676886187952,-0.047262016926900685,1.8873192071914673,0.9308844208717346,7.0,1.0,47.986000061035156,48.2130012512207,48.06100082397461,nan,nan,nan,nan,nan,nan,0,1,0
1777638299.770405,4814.496,2.2038896083831787,0.06389164924621582,-1.7775195280658167,-0.04722577730287725,1.887331247329712,0.9307885766029358,0.0,0.0,-0.0,0.0,0.0,0.0,0.1647949367761612,5.355835437774658,-0.049319833517074585,0.7200165390968323,0.1973877102136612,0.1345825344324112,0.7194766499279771,-0.5782761449261132,0.8532247178633539,-0.25950411059845013,-0.32097538355086785,1.579014508549071,0.0,0.0,0.0,0.0,0.0,0.0,2.2038536071777344,0.06393957138061529,-1.7775676886187952,-0.047262016926900685,1.8873192071914673,0.9308844208717346,7.0,1.0,47.986000061035156,48.2130012512207,48.06100082397461,nan,nan,nan,nan,nan,nan,0,1,0
1777638299.7778244,4814.504,2.203913688659668,0.06390368938446045,-1.7775557676898401,-0.04722577730287725,1.8873192071914673,0.9308125376701355,0.0,0.0,-0.0,0.0,0.0,0.0,0.1693725734949112,5.364990711212158,-0.033627159893512726,0.7267456650733948,0.2018737941980362,0.1345825344324112,0.7194839385629513,-0.5782366541340623,0.8532248395957617,-0.2595304887655801,-0.32096012833541,1.5790642485284592,0.0,0.0,0.0,0.0,0.0,0.0,2.2038536071777344,0.06393957138061529,-1.7775676886187952,-0.047262016926900685,1.8873192071914673,0.9308844208717346,7.0,1.0,47.986000061035156,48.2130012512207,48.06100082397461,nan,nan,nan,nan,nan,nan,0,1,0
1777638299.7851741,4814.512,2.2038657665252686,0.06389164924621582,-1.7775076071368616,-0.04727393785585576,1.8873192071914673,0.9308364987373352,0.0,0.0,-0.0,0.0,0.0,0.0,0.1693725734949112,5.360413074493408,-0.06277069449424744,0.7514191269874573,0.2041168361902237,0.1682281643152237,0.7194704617453043,-0.5782798750699237,0.8532410955125873,-0.25955438222562344,-0.3209478875919936,1.5790419225851842,0.0,0.0,0.0,0.0,0.0,0.0,2.2038536071777344,0.06393957138061529,-1.7775676886187952,-0.047262016926900685,1.8873192071914673,0.9308844208717346,7.0,1.0,47.986000061035156,48.2130012512207,48.06100082397461,nan,nan,nan,nan,nan,nan,0,1,0
1777638299.7920766,4814.5199999999995,2.2038657665252686,0.06389164924621582,-1.7774837652789515,-0.047237698231832326,1.8873192071914673,0.9308245182037354,0.0,0.0,-0.0,0.0,0.0,0.0,0.1281738430261612,5.369568347930908,-0.051561642438173294,0.7200165390968323,0.2130890041589737,0.1300964504480362,0.7194839367874932,-0.5783033517209801,0.8532204596264232,-0.25948618072670376,-0.32095900170302105,1.5790239104595571,0.0,0.0,0.0,0.0,0.0,0.0,2.2038536071777344,0.06393957138061529,-1.7775676886187952,-0.047262016926900685,1.8873192071914673,0.9308844208717346,7.0,1.0,47.986000061035156,48.2130012512207,48.06100082397461,nan,nan,nan,nan,nan,nan,0,1,0
1777638299.7996895,4814.527999999999,2.2038776874542236,0.06390368938446045,-1.7775433699237269,-0.047237698231832326,1.8873552083969116,0.9307765960693359,0.0,0.0,-0.0,0.0,0.0,0.0,0.1510620266199112,5.369568347930908,-0.053803451359272,0.7110443711280823,0.2198181450366974,0.1099090725183487,0.7194584069982911,-0.5782798431769774,0.853225976455907,-0.2595329212657665,-0.32099677472726945,1.5789934571162432,0.0,0.0,0.0,0.0,0.0,0.0,2.2038536071777344,0.06393957138061529,-1.7775676886187952,-0.047262016926900685,1.8873192071914673,0.9308844208717346,7.0,1.0,47.986000061035156,48.2130012512207,48.06100082397461,nan,nan,nan,nan,nan,nan,0,1,0
1777638299.8011274,4814.527999999999,2.2038776874542236,0.06390368938446045,-1.7775433699237269,-0.047237698231832326,1.8873552083969116,0.9307765960693359,0.0,0.0,-0.0,0.0,0.0,0.0,0.1510620266199112,5.369568347930908,-0.053803451359272,0.7110443711280823,0.2198181450366974,0.1099090725183487,0.7194584069982911,-0.5782798431769774,0.853225976455907,-0.2595329212657665,-0.32099677472726945,1.5789934571162432,0.0,0.0,0.0,0.0,0.0,0.0,2.2038536071777344,0.06393957138061529,-1.7775676886187952,-0.047262016926900685,1.8873192071914673,0.9308844208717346,7.0,1.0,47.986000061035156,48.2130012512207,48.06100082397461,3.67,31.56,60.58,0.035,1.472,1.006,0,0,1
1777638299.8068068,4814.536,2.2038896083831787,0.06393957138061523,-1.7775195280658167,-0.04725009599794561,1.887343168258667,0.9307885766029358,0.0,0.0,-0.0,0.0,0.0,0.0,0.1602173000574112,5.387878894805908,-0.035868968814611435,0.7110443711280823,0.1816864162683487,0.1390686184167862,0.7194930073179825,-0.5783010712453933,0.8531916747977352,-0.25948012486660704,-0.3209926972108529,1.5790119097947035,0.0,0.0,0.0,0.0,0.0,0.0,2.2038536071777344,0.06393957138061529,-1.7775676886187952,-0.047262016926900685,1.8873192071914673,0.9308844208717346,7.0,1.0,48.0,48.2130012512207,48.06100082397461,3.67,31.56,60.58,0.035,1.472,1.006,0,1,0
1777638299.8139176,4814.544,2.2038776874542236,0.06386768817901611,-1.7775195280658167,-0.047262016926900685,1.887331247329712,0.9308005571365356,0.0,0.0,-0.0,0.0,0.0,0.0,0.1739502102136612,5.387878894805908,-0.07173793762922287,0.7088013291358948,0.1973877102136612,0.1457977443933487,0.7194568075117043,-0.5782618822454835,0.8532600272422566,-0.2595739128046453,-0.32096215845050996,1.5790208846762965,0.0,0.0,0.0,0.0,0.0,0.0,2.2038536071777344,0.06393957138061529,-1.7775676886187952,-0.047262016926900685,1.8873192071914673,0.9308844208717346,7.0,1.0,48.0,48.2130012512207,48.06100082397461,3.67,31.56,60.58,0.035,1.472,1.006,0,1,0
1777638299.8210945,4814.552,2.2038896083831787,0.06387960910797119,-1.7774837652789515,-0.047237698231832326,1.8873072862625122,0.9308364987373352,0.0,0.0,-0.0,0.0,0.0,0.0,0.1190185695886612,5.387878894805908,-0.07173793762922287,0.7200165390968323,0.2377624809741974,0.1390686184167862,0.7194955200333426,-0.578275309846183,0.8532311073570858,-0.25949691621777676,-0.320946915969336,1.5790604505123198,0.0,0.0,0.0,0.0,0.0,0.0,2.2038536071777344,0.06393957138061529,-1.7775676886187952,-0.047262016926900685,1.8873192071914673,0.9308844208717346,7.0,1.0,48.0,48.2130012512207,48.06100082397461,3.67,31.56,60.58,0.035,1.472,1.006,0,1,0
1777638299.8282654,4814.5599999999995,2.203901529312134,0.06390368938446045,-1.7775195280658167,-0.047262016926900685,1.8872952461242676,0.9308005571365356,0.0,0.0,-0.0,0.0,0.0,0.0,0.1693725734949112,5.383301258087158,-0.04483621194958687,0.7446900010108948,0.1861725002527237,0.1300964504480362,0.7194900021141335,-0.578263476089748,0.8532252839021727,-0.25952601021596444,-0.3209327700634025,1.5790403658539807,0.0,0.0,0.0,0.0,0.0,0.0,2.2038536071777344,0.06393957138061529,-1.7775676886187952,-0.047262016926900685,1.8873192071914673,0.9308844208717346,7.0,1.0,48.0,48.2130012512207,48.06100082397461,3.67,31.56,60.58,0.035,1.472,1.006,0,1,0
1777638299.835384,4814.568,2.203901529312134,0.06395161151885986,-1.7775195280658167,-0.047262016926900685,1.8872952461242676,0.9308125376701355,0.0,0.0,-0.0,0.0,0.0,0.0,0.1464843899011612,5.378723621368408,-0.03138534724712372,0.7334747910499573,0.1973877102136612,0.1211242824792862,0.7195122199207467,-0.5782884076253898,0.8531833197371388,-0.2594758902262943,-0.32093995345471416,1.5790470156632648,0.0,0.0,0.0,0.0,0.0,0.0,2.2038536071777344,0.06393957138061529,-1.7775676886187952,-0.047262016926900685,1.8873192071914673,0.9308844208717346,7.0,1.0,48.0,48.2130012512207,48.04600143432617,3.67,31.56,60.58,0.035,1.472,1.006,0,1,0
1777638299.842896,4814.576,2.2038776874542236,0.06391561031341553,-1.7774956862079065,-0.04727393785585576,1.8873192071914673,0.9308245182037354,0.0,0.0,-0.0,0.0,0.0,0.0,0.1876831203699112,5.342102527618408,-0.04707802087068558,0.7088013291358948,0.2287903130054474,0.1300964504480362,0.719491390680198,-0.5782957174014515,0.8532155941106392,-0.25951124833280137,-0.3209571244565123,1.5790380529846957,0.0,0.0,0.0,0.0,0.0,0.0,2.2038536071777344,0.06393957138061529,-1.7775676886187952,-0.047262016926900685,1.8873192071914673,0.9308844208717346,7.0,1.0,48.0,48.2130012512207,48.04600143432617,3.67,31.56,60.58,0.035,1.472,1.006,0,1,0
1777638299.8499167,4814.584,2.203901529312134,0.06390368938446045,-1.7775433699237269,-0.04725009599794561,1.8872833251953125,0.9308245182037354,0.0,0.0,-0.0,0.0,0.0,0.0,0.1739502102136612,5.383301258087158,-0.0784633681178093,0.7200165390968323,0.2130890041589737,0.1614990383386612,0.7194852275143244,-0.5782437841834597,0.8532283421117409,-0.25954194023880434,-0.32091548879117865,1.5790651639328601,0.0,0.0,0.0,0.0,0.0,0.0,2.2038536071777344,0.06393957138061529,-1.7775676886187952,-0.047262016926900685,1.8873192071914673,0.9308844208717346,7.0,1.0,48.0,48.2130012512207,48.04600143432617,3.67,31.56,60.58,0.035,1.472,1.006,0,1,0
1777638299.85695,4814.592,2.2038776874542236,0.06391561031341553,-1.7774718443499964,-0.04725009599794561,1.8873552083969116,0.9307885766029358,0.0,0.0,-0.0,0.0,0.0,0.0,0.1739502102136612,5.383301258087158,-0.051561642438173294,0.7222595810890198,0.2175751030445099,0.1457977443933487,0.7194961263985716,-0.5783257026969889,0.853200530329205,-0.2594574471922568,-0.32100792884796736,1.5789978489077658,0.0,0.0,0.0,0.0,0.0,0.0,2.2038536071777344,0.06393957138061529,-1.7775676886187952,-0.047262016926900685,1.8873192071914673,0.9308844208717346,7.0,1.0,48.0,48.2130012512207,48.04600143432617,3.67,31.56,60.58,0.035,1.472,1.006,0,1,0
1777638299.8644562,4814.599999999999,2.2038896083831787,0.06395161151885986,-1.7775314489947718,-0.04725009599794561,1.887343168258667,0.9308005571365356,0.0,0.0,-0.0,0.0,0.0,0.0,0.1785278469324112,5.383301258087158,-0.06725431978702545,0.7424469590187073,0.2086029201745987,0.1368255764245987,0.7194944215709195,-0.5782977010642479,0.8531850652004477,-0.25948235400717046,-0.32099170221782714,1.5790236519327818,0.0,0.0,0.0,0.0,0.0,0.0,2.2038536071777344,0.06393957138061529,-1.7775676886187952,-0.047262016926900685,1.8873192071914673,0.9308844208717346,7.0,1.0,48.0,48.2130012512207,48.04600143432617,3.67,31.56,60.58,0.035,1.472,1.006,0,1,0
1777638299.871722,4814.608,2.2038776874542236,0.06392765045166016,-1.7774718443499964,-0.047237698231832326,1.887331247329712,0.9308364987373352,0.0,0.0,-0.0,0.0,0.0,0.0,0.1281738430261612,5.369568347930908,-0.051561642438173294,0.7132874131202698,0.2243042290210724,0.1345825344324112,0.719512013282088,-0.578320830358367,0.8531866590628792,-0.2594364094921223,-0.32098152981551836,1.579042394653125,0.0,0.0,0.0,0.0,0.0,0.0,2.2038536071777344,0.06393957138061529,-1.7775676886187952,-0.047262016926900685,1.8873192071914673,0.9308844208717346,7.0,1.0,48.0,48.2130012512207,48.04600143432617,3.67,31.56,60.58,0.035,1.472,1.006,0,1,0
1777638299.878856,4814.616,2.203913688659668,0.06392765045166016,-1.7775076071368616,-0.04720193544496709,1.887331247329712,0.9307765960693359,0.0,0.0,-0.0,0.0,0.0,0.0,0.1739502102136612,5.374145984649658,-0.049319833517074585,0.6975861191749573,0.1951446682214737,0.1031799390912056,0.7195126180230635,-0.5782940546577081,0.853179819924641,-0.25942013916322404,-0.320992756579676,1.579018860284807,0.0,0.0,0.0,0.0,0.0,0.0,2.2038536071777344,0.06393957138061529,-1.7775676886187952,-0.047262016926900685,1.8873192071914673,0.9308844208717346,7.0,1.0,48.0,48.2130012512207,48.04600143432617,3.67,31.56,60.58,0.035,1.472,1.006,0,1,0
1777638299.8858051,4814.624,2.2038896083831787,0.06392765045166016,-1.7775314489947718,-0.047237698231832326,1.8873192071914673,0.9308364987373352,0.0,0.0,-0.0,0.0,0.0,0.0,0.1693725734949112,5.355835437774658,-0.04707802087068558,0.7334747910499573,0.2130890041589737,0.1547699123620987,0.7194932069666506,-0.5782748667316399,0.853202525080797,-0.25949838329301533,-0.3209601598204276,1.5790602668353944,0.0,0.0,0.0,0.0,0.0,0.0,2.2038536071777344,0.06393957138061529,-1.7775676886187952,-0.047262016926900685,1.8873192071914673,0.9308844208717346,7.0,1.0,48.0,48.22800064086914,48.04600143432617,3.67,31.56,60.58,0.035,1.472,1.006,0,1,0
1777638299.8928921,4814.632,2.2038657665252686,0.06391561031341553,-1.7775557676898401,-0.04720193544496709,1.8872952461242676,0.9307641983032227,0.0,0.0,-0.0,0.0,0.0,0.0,0.1556396633386612,5.383301258087158,-0.035868968814611435,0.7379608750343323,0.2041168361902237,0.1816864162683487,0.7194601503442958,-0.5782928003976019,0.8532006496613959,-0.259484121185022,-0.320935502704192,1.5789655858748968,0.0,0.0,0.0,0.0,0.0,0.0,2.2038536071777344,0.06393957138061529,-1.7775676886187952,-0.047262016926900685,1.8873192071914673,0.9308844208717346,7.0,1.0,48.0,48.22800064086914,48.04600143432617,3.67,31.56,60.58,0.035,1.472,1.006,0,1,0
1777638299.9004784,4814.639999999999,2.2038776874542236,0.06389164924621582,-1.7775076071368616,-0.047237698231832326,1.8873552083969116,0.9308005571365356,0.0,0.0,-0.0,0.0,0.0,0.0,0.1602173000574112,5.406189441680908,-0.06277069449424744,0.7514191269874573,0.1973877102136612,0.1211242824792862,0.7194727590859449,-0.5782886020352278,0.8532282297967909,-0.2595116246499022,-0.3209987619555639,1.579014652736531,0.0,0.0,0.0,0.0,0.0,0.0,2.2038536071777344,0.06393957138061529,-1.7775676886187952,-0.047262016926900685,1.8873192071914673,0.9308844208717346,7.0,1.0,48.0,48.22800064086914,48.06100082397461,3.67,31.56,60.58,0.035,1.472,1.006,0,1,0
1777638299.9075565,4814.648,2.2038896083831787,0.06395161151885986,-1.7775076071368616,-0.047262016926900685,1.8873192071914673,0.9308245182037354,0.0,0.0,-0.0,0.0,0.0,0.0,0.1876831203699112,5.378723621368408,-0.01569267362356186,0.7379608750343323,0.1861725002527237,0.1390686184167862,0.7195097493211705,-0.5783027542681507,0.8531825032209849,-0.2594703353406586,-0.32096531331654293,1.5790459290993157,0.0,0.0,0.0,0.0,0.0,0.0,2.2038536071777344,0.06393957138061529,-1.7775676886187952,-0.047262016926900685,1.8873192071914673,0.9308844208717346,7.0,1.0,48.0,48.22800064086914,48.06100082397461,3.67,31.56,60.58,0.035,1.472,1.006,0,1,0
1777638299.914624,4814.656,2.2038657665252686,0.06390368938446045,-1.7775433699237269,-0.04725009599794561,1.8873072862625122,0.9307765960693359,0.0,0.0,-0.0,0.0,0.0,0.0,0.1464843899011612,5.383301258087158,-0.04259439930319786,0.7312317490577698,0.2041168361902237,0.1300964504480362,0.7194553039325065,-0.5782833907058116,0.8532269734131399,-0.25954066367490347,-0.3209397903106909,1.57898281349687,0.0,0.0,0.0,0.0,0.0,0.0,2.2038536071777344,0.06393957138061529,-1.7775676886187952,-0.047262016926900685,1.8873192071914673,0.9308844208717346,7.0,1.0,48.0,48.22800064086914,48.06100082397461,3.67,31.56,60.58,0.035,1.472,1.006,0,1,0
1777638299.9225688,4814.664,2.2038536071777344,0.06390368938446045,-1.7774956862079065,-0.04721385637392217,1.8873072862625122,0.9308125376701355,0.0,0.0,-0.0,0.0,0.0,0.0,0.1647949367761612,5.392456531524658,-0.035868968814611435,0.7200165390968323,0.2153320610523224,0.1390686184167862,0.7194791655997134,-0.5783179183273156,0.8532027607138525,-0.25945726149715365,-0.320948755635436,1.5789975635845588,0.0,0.0,0.0,0.0,0.0,0.0,2.2038536071777344,0.06393957138061529,-1.7775676886187952,-0.047262016926900685,1.8873192071914673,0.9308844208717346,7.0,1.0,48.0,48.22800064086914,48.06100082397461,3.67,31.56,60.58,0.035,1.472,1.006,0,1,0
1777638299.9291835,4814.672,2.2038536071777344,0.06390368938446045,-1.7775076071368616,-0.047262016926900685,1.8873552083969116,0.9308484792709351,0.0,0.0,-0.0,0.0,0.0,0.0,0.1510620266199112,5.378723621368408,-0.053803451359272,0.6998291611671448,0.2018737941980362,0.1323394924402237,0.7194677119957897,-0.5782967683508256,0.8532294419615101,-0.2595375108047829,-0.32098849440894484,1.5790393558469236,0.0,0.0,0.0,0.0,0.0,0.0,2.2038536071777344,0.06393957138061529,-1.7775676886187952,-0.047262016926900685,1.8873192071914673,0.9308844208717346,7.0,1.0,48.0,48.22800064086914,48.06100082397461,3.67,31.56,60.58,0.035,1.472,1.006,0,1,0
1777638299.9365253,4814.679999999999,2.203913688659668,0.06395161151885986,-1.7775314489947718,-0.04721385637392217,1.887331247329712,0.9308125376701355,0.0,0.0,-0.0,0.0,0.0,0.0,0.1373291164636612,5.369568347930908,-0.051561642438173294,0.7065582871437073,0.1973877102136612,0.1368255764245987,0.7195156273278641,-0.578282269651428,0.8531718159907673,-0.2594401477510515,-0.3209877421169702,1.5790553906950608,0.0,0.0,0.0,0.0,0.0,0.0,2.2038536071777344,0.06393957138061529,-1.7775676886187952,-0.047262016926900685,1.8873192071914673,0.9308844208717346,7.0,1.0,48.01499938964844,48.22800064086914,48.06100082397461,3.67,31.56,60.58,0.035,1.472,1.006,0,1,0
1777638299.9433975,4814.688,2.203901529312134,0.06397557258605957,-1.7775076071368616,-0.04722577730287725,1.8873072862625122,0.9308005571365356,0.0,0.0,-0.0,0.0,0.0,0.0,0.1373291164636612,5.383301258087158,-0.07622155547142029,0.6998291611671448,0.2130890041589737,0.1457977443933487,0.7195292487170675,-0.578319337322976,0.8531455391831595,-0.25939635705216824,-0.32096641425060823,1.5790277054093387,0.0,0.0,0.0,0.0,0.0,0.0,2.2038536071777344,0.06393957138061529,-1.7775676886187952,-0.047262016926900685,1.8873192071914673,0.9308844208717346,7.0,1.0,48.01499938964844,48.22800064086914,48.06100082397461,3.67,31.56,60.58,0.035,1.472,1.006,0,1,0
1777638299.9445813,4814.688,2.203901529312134,0.06397557258605957,-1.7775076071368616,-0.04722577730287725,1.8873072862625122,0.9308005571365356,0.0,0.0,-0.0,0.0,0.0,0.0,0.1373291164636612,5.383301258087158,-0.07622155547142029,0.6998291611671448,0.2130890041589737,0.1457977443933487,0.7195292487170675,-0.578319337322976,0.8531455391831595,-0.25939635705216824,-0.32096641425060823,1.5790277054093387,0.0,0.0,0.0,0.0,0.0,0.0,2.2038536071777344,0.06393957138061529,-1.7775676886187952,-0.047262016926900685,1.8873192071914673,0.9308844208717346,7.0,1.0,48.01499938964844,48.22800064086914,48.06100082397461,3.64,31.52,60.62,0.034,1.473,1.003,0,0,1
1777638299.9503694,4814.696,2.2038536071777344,0.06390368938446045,-1.7775433699237269,-0.04725009599794561,1.887343168258667,0.9308125376701355,0.0,0.0,-0.0,0.0,0.0,0.0,0.1739502102136612,5.383301258087158,-0.04035259038209915,0.7065582871437073,0.1884155422449112,0.1390686184167862,0.7194492851391888,-0.5782851749977995,0.8532319386009338,-0.2595547268276071,-0.32097417179329263,1.5790063768259082,0.0,0.0,0.0,0.0,0.0,0.0,2.2038536071777344,0.06393957138061529,-1.7775676886187952,-0.047262016926900685,1.8873192071914673,0.9308844208717346,7.0,1.0,48.01499938964844,48.24300003051758,48.06100082397461,3.64,31.52,60.62,0.034,1.473,1.003,0,1,0
1777638299.957723,4814.704,2.203901529312134,0.06393957138061523,-1.7775433699237269,-0.04727393785585576,1.887343168258667,0.9308245182037354,0.0,0.0,-0.0,0.0,0.0,0.0,0.1373291164636612,5.387878894805908,-0.05604526400566101,0.7043152451515198,0.2086029201745987,0.1390686184167862,0.7194912070547983,-0.5782648108121144,0.8532093708464652,-0.25953795108483935,-0.32098367033154374,1.579063991169873,0.0,0.0,0.0,0.0,0.0,0.0,2.2038536071777344,0.06393957138061529,-1.7775676886187952,-0.047262016926900685,1.8873192071914673,0.9308844208717346,7.0,1.0,48.01499938964844,48.24300003051758,48.06100082397461,3.64,31.52,60.62,0.034,1.473,1.003,0,1,0
1777638299.9651446,4814.7119999999995,2.2038776874542236,0.06392765045166016,-1.7775433699237269,-0.04722577730287725,1.8872952461242676,0.9308364987373352,0.0,0.0,-0.0,0.0,0.0,0.0,0.1831054836511612,5.383301258087158,-0.053803451359272,0.7469330430030823,0.1996307522058487,0.1413116604089737,0.7194849629171445,-0.5782764774087079,0.8531997933425668,-0.25949619341010194,-0.3209316086420372,1.579048437651852,0.0,0.0,0.0,0.0,0.0,0.0,2.2038536071777344,0.06393957138061529,-1.7775676886187952,-0.047262016926900685,1.8873192071914673,0.9308844208717346,7.0,1.0,48.01499938964844,48.24300003051758,48.06100082397461,3.64,31.52,60.62,0.034,1.473,1.003,0,1,0
1777638299.9722614,4814.719999999999,2.2038536071777344,0.06393957138061523,-1.7775076071368616,-0.04727393785585576,1.887343168258667,0.9307765960693359,0.0,0.0,-0.0,0.0,0.0,0.0,0.2014160305261612,5.392456531524658,-0.049319833517074585,0.7043152451515198,0.1839294582605362,0.1345825344324112,0.7194730988857843,-0.5783336044991908,0.8531962013975232,-0.2594953406689165,-0.32098552911898365,1.578965868434061,0.0,0.0,0.0,0.0,0.0,0.0,2.2038536071777344,0.06393957138061529,-1.7775676886187952,-0.047262016926900685,1.8873192071914673,0.9308844208717346,7.0,1.0,48.01499938964844,48.24300003051758,48.06100082397461,3.64,31.52,60.62,0.034,1.473,1.003,0,1,0
1777638299.9790869,4814.728,2.203901529312134,0.06392765045166016,-1.7775195280658167,-0.04722577730287725,1.887343168258667,0.9308245182037354,0.0,0.0,-0.0,0.0,0.0,0.0,0.1464843899011612,5.383301258087158,-0.03138534724712372,0.7245026230812073,0.2108459621667862,0.1390686184167862,0.7195026396349915,-0.5782801204192698,0.8531958198173559,-0.25947208398738214,-0.32099369749772305,1.5790578319004895,0.0,0.0,0.0,0.0,0.0,0.0,2.2038536071777344,0.06393957138061529,-1.7775676886187952,-0.047262016926900685,1.8873192071914673,0.9308844208717346,7.0,1.0,48.01499938964844,48.24300003051758,48.06100082397461,3.64,31.52,60.62,0.034,1.473,1.003,0,1,0
1777638299.9869423,4814.736,2.2038896083831787,0.06391561031341553,-1.7775195280658167,-0.047237698231832326,1.887343168258667,0.9308364987373352,0.0,0.0,-0.0,0.0,0.0,0.0,0.1098632961511612,5.369568347930908,-0.04035259038209915,0.7155304551124573,0.1996307522058487,0.1435547024011612,0.719490810928904,-0.578276682950592,0.8532116677468372,-0.25950217392680236,-0.32098655566973494,1.5790604163121524,0.0,0.0,0.0,0.0,0.0,0.0,2.2038536071777344,0.06393957138061529,-1.7775676886187952,-0.047262016926900685,1.8873192071914673,0.9308844208717346,7.0,1.0,48.01499938964844,48.24300003051758,48.06100082397461,3.64,31.52,60.62,0.034,1.473,1.003,0,1,0
1777638299.9934707,4814.744,2.203901529312134,0.06389164924621582,-1.7775314489947718,-0.04725009599794561,1.887331247329712,0.9308364987373352,0.0,0.0,-0.0,0.0,0.0,0.0,0.1510620266199112,5.383301258087158,-0.049319833517074585,0.7088013291358948,0.1996307522058487,0.1435547024011612,0.7194818495857043,-0.5782440461591034,0.853240017642614,-0.25955174996465546,-0.320967285166572,1.5790772065035856,0.0,0.0,0.0,0.0,0.0,0.0,2.2038536071777344,0.06393957138061529,-1.7775676886187952,-0.047262016926900685,1.8873192071914673,0.9308844208717346,7.0,1.0,48.01499938964844,48.24300003051758,48.06100082397461,3.64,31.52,60.62,0.034,1.473,1.003,0,1,0
1777638300.0010312,4814.7519999999995,2.203913688659668,0.06390368938446045,-1.7774956862079065,-0.04729777971376592,1.887331247329712,0.9308005571365356,0.0,0.0,-0.0,0.0,0.0,0.0,0.1464843899011612,5.392456531524658,-0.04483621194958687,0.6931000351905823,0.2130890041589737,0.1099090725183487,0.719499624685156,-0.5782660083585602,0.8532342030734594,-0.2595430892642872,-0.32097271256232923,1.5790537020558182,0.0,0.0,0.0,0.0,0.0,0.0,2.2038536071777344,0.06393957138061529,-1.7775676886187952,-0.047262016926900685,1.8873192071914673,0.9308844208717346,7.0,1.0,48.01499938964844,48.24300003051758,48.06100082397461,3.64,31.52,60.62,0.034,1.473,1.003,0,1,0
1777638300.0080128,4814.76,2.2038657665252686,0.06390368938446045,-1.7775314489947718,-0.047262016926900685,1.887331247329712,0.9307885766029358,0.0,0.0,-0.0,0.0,0.0,0.0,0.1693725734949112,5.369568347930908,-0.06052888557314873,0.6886139512062073,0.2198181450366974,0.1390686184167862,0.7194583067408928,-0.5782872709577919,0.8532304852946516,-0.25954669076088066,-0.32096524247842556,1.5789947019913448,0.0,0.0,0.0,0.0,0.0,0.0,2.2038536071777344,0.06393957138061529,-1.7775676886187952,-0.047262016926900685,1.8873192071914673,0.9308844208717346,7.0,1.0,48.01499938964844,48.24300003051758,48.06100082397461,3.64,31.52,60.62,0.034,1.473,1.003,0,1,0
1777638300.0148726,4814.768,2.203913688659668,0.06393957138061523,-1.7775314489947718,-0.04722577730287725,1.8873552083969116,0.9308484792709351,0.0,0.0,-0.0,0.0,0.0,0.0,0.1602173000574112,5.387878894805908,-0.051561642438173294,0.7581482529640198,0.2175751030445099,0.1188812404870987,0.7195113626167954,-0.5782656156400267,0.8531909776601055,-0.25947712158244174,-0.3210070517689609,1.5790934123832852,0.0,0.0,0.0,0.0,0.0,0.0,2.2038536071777344,0.06393957138061529,-1.7775676886187952,-0.047262016926900685,1.8873192071914673,0.9308844208717346,7.0,1.0,48.01499938964844,48.24300003051758,48.06100082397461,3.64,31.52,60.62,0.034,1.473,1.003,0,1,0
1777638300.0817888,4814.776,2.203913688659668,0.06392765045166016,-1.7774956862079065,-0.04722577730287725,1.8873072862625122,0.9308364987373352,0.0,0.0,-0.0,0.0,0.0,0.0,0.1556396633386612,5.383301258087158,-0.035868968814611435,0.6931000351905823,0.1794433742761612,0.1345825344324112,0.7195260774068017,-0.5782806372087008,0.8531872772144197,-0.25944130360524564,-0.32095928230226484,1.5790790105517905,0.0,0.0,0.0,0.0,0.0,0.0,2.2038536071777344,0.06393957138061529,-1.7775676886187952,-0.047262016926900685,1.8873192071914673,0.9308844208717346,7.0,1.0,48.01499938964844,48.24300003051758,48.06100082397461,3.64,31.52,60.62,0.034,1.473,1.003,0,1,0
1777638300.085591,4814.784,2.203901529312134,0.06390368938446045,-1.7775076071368616,-0.047262016926900685,1.887331247329712,0.9308125376701355,0.0,0.0,-0.0,0.0,0.0,0.0,0.1785278469324112,5.364990711212158,-0.04707802087068558,0.7536621689796448,0.2063598781824112,0.1502838283777237,0.719493101934574,-0.5782700154062563,0.8532253482133247,-0.2595208114844995,-0.3209734818269955,1.5790510687282506,0.0,0.0,0.0,0.0,0.0,0.0,2.2038536071777344,0.06393957138061529,-1.7775676886187952,-0.047262016926900685,1.8873192071914673,0.9308844208717346,7.0,1.0,48.01499938964844,48.24300003051758,48.029998779296875,3.64,31.52,60.62,0.034,1.473,1.003,0,1,0
1777638300.0856795,4814.7919999999995,2.2038536071777344,0.06391561031341553,-1.7775076071368616,-0.04725009599794561,1.887343168258667,0.9307885766029358,0.0,0.0,-0.0,0.0,0.0,0.0,0.1739502102136612,5.360413074493408,-0.033627159893512726,0.7200165390968323,0.1884155422449112,0.1211242824792862,0.7194673098370605,-0.5783202877946587,0.8532096979830578,-0.2594977898385334,-0.3209843624286949,1.5789777862964325,0.0,0.0,0.0,0.0,0.0,0.0,2.2038536071777344,0.06393957138061529,-1.7775676886187952,-0.047262016926900685,1.8873192071914673,0.9308844208717346,7.0,1.0,48.01499938964844,48.24300003051758,48.029998779296875,3.64,31.52,60.62,0.034,1.473,1.003,0,1,0
1777638300.0879433,4814.8,2.2038896083831787,0.06397557258605957,-1.7775314489947718,-0.047262016926900685,1.8873552083969116,0.9307765960693359,0.0,0.0,-0.0,0.0,0.0,0.0,0.1327514797449112,5.387878894805908,-0.033627159893512726,0.7110443711280823,0.1682281643152237,0.1390686184167862,0.7194986553274327,-0.5783167622167402,0.8531673400853119,-0.2594663277848205,-0.32100915209796815,1.5789987455514132,0.0,0.0,0.0,0.0,0.0,0.0,2.2038536071777344,0.06393957138061529,-1.7775676886187952,-0.047262016926900685,1.8873192071914673,0.9308844208717346,7.0,1.0,48.01499938964844,48.24300003051758,48.029998779296875,3.64,31.52,60.62,0.034,1.473,1.003,0,1,0
1777638300.0904331,4814.808,2.2038536071777344,0.06393957138061523,-1.7775195280658167,-0.04728585878481084,1.887343168258667,0.9308125376701355,0.0,0.0,-0.0,0.0,0.0,0.0,0.1464843899011612,5.328369617462158,-0.038110777735710144,0.7245026230812073,0.1973877102136612,0.1794433742761612,0.7194712311603542,-0.5783151336940232,0.8532062203258255,-0.259528523774999,-0.3209784413229452,1.579003740908882,0.0,0.0,0.0,0.0,0.0,0.0,2.2038536071777344,0.06393957138061529,-1.7775676886187952,-0.047262016926900685,1.8873192071914673,0.9308844208717346,7.0,1.0,48.01499938964844,48.24300003051758,48.029998779296875,3.64,31.52,60.62,0.034,1.473,1.003,0,1,0
1777638300.0920162,4814.816,2.203913688659668,0.06395161151885986,-1.7775195280658167,-0.047237698231832326,1.8873192071914673,0.9308125376701355,0.0,0.0,-0.0,0.0,0.0,0.0,0.1739502102136612,5.438232898712158,-0.06277069449424744,0.6975861191749573,0.1861725002527237,0.1278534084558487,0.7195195151209492,-0.5782850447389523,0.8531762425896162,-0.2594513813926579,-0.32097253494034467,1.5790565729396788,0.0,0.0,0.0,0.0,0.0,0.0,2.2038536071777344,0.06393957138061529,-1.7775676886187952,-0.047262016926900685,1.8873192071914673,0.9308844208717346,7.0,1.0,48.01499938964844,48.24300003051758,48.029998779296875,3.64,31.52,60.62,0.034,1.473,1.003,0,1,0
1777638300.0942457,4814.824,2.2038896083831787,0.06391561031341553,-1.7775195280658167,-0.047262016926900685,1.887331247329712,0.9307885766029358,0.0,0.0,-0.0,0.0,0.0,0.0,0.1785278469324112,5.374145984649658,-0.05828707292675972,0.7828217148780823,0.2086029201745987,0.1435547024011612,0.7194826147427009,-0.5782844108256139,0.8532165035611161,-0.2595176041480455,-0.32097346572918856,1.5790156729131772,0.0,0.0,0.0,0.0,0.0,0.0,2.2038536071777344,0.06393957138061529,-1.7775676886187952,-0.047262016926900685,1.8873192071914673,0.9308844208717346,7.0,1.0,48.01499938964844,48.24300003051758,48.029998779296875,3.64,31.52,60.62,0.034,1.473,1.003,0,1,0
1777638300.096891,4814.831999999999,2.2038776874542236,0.06396353244781494,-1.7775076071368616,-0.047237698231832326,1.8873552083969116,0.9308005571365356,0.0,0.0,-0.0,0.0,0.0,0.0,0.1876831203699112,5.346680164337158,-0.06725431978702545,0.7043152451515198,0.1973877102136612,0.1413116604089737,0.7195036060280027,-0.5783306287122113,0.8531641120691094,-0.25943291884542946,-0.3210110742704019,1.5790069208430484,0.0,0.0,0.0,0.0,0.0,0.0,2.2038536071777344,0.06393957138061529,-1.7775676886187952,-0.047262016926900685,1.8873192071914673,0.9308844208717346,7.0,1.0,48.01499938964844,48.24300003051758,48.029998779296875,3.64,31.52,60.62,0.034,1.473,1.003,0,1,0
1777638300.0970962,4814.84,2.203901529312134,0.06390368938446045,-1.7775076071368616,-0.047237698231832326,1.8872712850570679,0.9308125376701355,0.0,0.0,-0.0,0.0,0.0,0.0,0.1190185695886612,5.351257801055908,-0.06501250714063644,0.6998291611671448,0.2422485649585724,0.1502838283777237,0.7195025908287246,-0.5782700352097621,0.8532121332217961,-0.25948497197284576,-0.3209113941084335,1.5790483343735409,0.0,0.0,0.0,0.0,0.0,0.0,2.2038536071777344,0.06393957138061529,-1.7775676886187952,-0.047262016926900685,1.8873192071914673,0.9308844208717346,7.0,1.0,48.01499938964844,48.22800064086914,48.029998779296875,3.64,31.52,60.62,0.034,1.473,1.003,0,1,0
1777638300.097457,4814.848,2.203901529312134,0.06392765045166016,-1.7774837652789515,-0.04725009599794561,1.887331247329712,0.9308125376701355,0.0,0.0,-0.0,0.0,0.0,0.0,0.1739502102136612,5.387878894805908,-0.04259439930319786,0.7424469590187073,0.2018737941980362,0.1457977443933487,0.7195156149803752,-0.578300560051235,0.8531929490083524,-0.25945538556498743,-0.32098363244535555,1.5790447920067325,0.0,0.0,0.0,0.0,0.0,0.0,2.2038536071777344,0.06393957138061529,-1.7775676886187952,-0.047262016926900685,1.8873192071914673,0.9308844208717346,7.0,1.0,48.01499938964844,48.22800064086914,48.029998779296875,3.64,31.52,60.62,0.034,1.473,1.003,0,1,0
1777638300.0975866,4814.848,2.203901529312134,0.06392765045166016,-1.7774837652789515,-0.04725009599794561,1.887331247329712,0.9308125376701355,0.0,0.0,-0.0,0.0,0.0,0.0,0.1739502102136612,5.387878894805908,-0.04259439930319786,0.7424469590187073,0.2018737941980362,0.1457977443933487,0.7195156149803752,-0.578300560051235,0.8531929490083524,-0.25945538556498743,-0.32098363244535555,1.5790447920067325,0.0,0.0,0.0,0.0,0.0,0.0,2.2038536071777344,0.06393957138061529,-1.7775676886187952,-0.047262016926900685,1.8873192071914673,0.9308844208717346,7.0,1.0,48.01499938964844,48.22800064086914,48.029998779296875,3.66,31.51,60.64,0.036,1.471,1.0,0,0,1
1777638300.0976748,4814.856,2.203901529312134,0.06392765045166016,-1.7775076071368616,-0.047237698231832326,1.8873192071914673,0.9307765960693359,0.0,0.0,-0.0,0.0,0.0,0.0,0.1602173000574112,5.401611804962158,-0.04035259038209915,0.7536621689796448,0.2108459621667862,0.1547699123620987,0.719502648952918,-0.5782963664216041,0.8531919244755211,-0.2594590192246833,-0.3209714213068626,1.5790105294256243,0.0,0.0,0.0,0.0,0.0,0.0,2.2038536071777344,0.06393957138061529,-1.7775676886187952,-0.047262016926900685,1.8873192071914673,0.9308844208717346,7.0,1.0,48.01499938964844,48.22800064086914,48.029998779296875,3.66,31.51,60.64,0.036,1.471,1.0,0,1,0
1777638300.1014535,4814.864,2.2038896083831787,0.06392765045166016,-1.7775076071368616,-0.047237698231832326,1.8872833251953125,0.9307885766029358,0.0,0.0,-0.0,0.0,0.0,0.0,0.1373291164636612,5.355835437774658,-0.04483621194958687,0.6975861191749573,0.1929016262292862,0.1323394924402237,0.7195013516134598,-0.5782995631012982,0.8531900808055537,-0.25945736448884316,-0.32092875129273846,1.579010454517908,0.0,0.0,0.0,0.0,0.0,0.0,2.2038536071777344,0.06393957138061529,-1.7775676886187952,-0.047262016926900685,1.8873192071914673,0.9308844208717346,7.0,1.0,48.01499938964844,48.22800064086914,48.029998779296875,3.66,31.51,60.64,0.036,1.471,1.0,0,1,0
1777638300.1154256,4814.871999999999,2.2038776874542236,0.06389164924621582,-1.7775195280658167,-0.04720193544496709,1.887343168258667,0.9308125376701355,0.0,0.0,-0.0,0.0,0.0,0.0,0.1968383938074112,5.360413074493408,-0.049319833517074585,0.7132874131202698,0.1525268703699112,0.1547699123620987,0.7194745912071356,-0.5782830904102477,0.853218494211252,-0.2594859874371429,-0.32098836925513075,1.579023952627795,0.0,0.0,0.0,0.0,0.0,0.0,2.2038536071777344,0.06393957138061529,-1.7775676886187952,-0.047262016926900685,1.8873192071914673,0.9308844208717346,7.0,1.0,48.01499938964844,48.22800064086914,48.029998779296875,3.66,31.51,60.64,0.036,1.471,1.0,0,1,0
1777638300.1158764,4814.88,2.2038896083831787,0.06391561031341553,-1.7775314489947718,-0.047262016926900685,1.8873192071914673,0.9308005571365356,0.0,0.0,-0.0,0.0,0.0,0.0,0.1144409328699112,5.383301258087158,-0.033627159893512726,0.7402039170265198,0.1614990383386612,0.1211242824792862,0.7194801856610464,-0.5782732314746429,0.8532197524728004,-0.2595311730839095,-0.3209571299404254,1.5790286646591882,0.0,0.0,0.0,0.0,0.0,0.0,2.2038536071777344,0.06393957138061529,-1.7775676886187952,-0.047262016926900685,1.8873192071914673,0.9308844208717346,7.0,1.0,48.01499938964844,48.22800064086914,48.029998779296875,3.66,31.51,60.64,0.036,1.471,1.0,0,1,0
1777638300.1228437,4814.888,2.203925609588623,0.06396353244781494,-1.7775195280658167,-0.047262016926900685,1.887331247329712,0.9307885766029358,0.0,0.0,-0.0,0.0,0.0,0.0,0.1831054836511612,5.337524890899658,-0.04707802087068558,0.7065582871437073,0.1906585842370987,0.1211242824792862,0.7195239991535177,-0.5782865249683786,0.8531737585723037,-0.2594606429351434,-0.3209879365718024,1.5790459851245648,0.0,0.0,0.0,0.0,0.0,0.0,2.2038536071777344,0.06393957138061529,-1.7775676886187952,-0.047262016926900685,1.8873192071914673,0.9308844208717346,7.0,1.0,48.01499938964844,48.22800064086914,48.029998779296875,3.66,31.51,60.64,0.036,1.471,1.0,0,1,0
1777638300.1304789,4814.896,2.203925609588623,0.06393957138061523,-1.7775314489947718,-0.047262016926900685,1.8873192071914673,0.9308245182037354,0.0,0.0,-0.0,0.0,0.0,0.0,0.2059936672449112,5.415344715118408,-0.07173793762922287,0.6886139512062073,0.2018737941980362,0.1525268703699112,0.7195145912159226,-0.5782551653546297,0.8531999412218715,-0.2595051501209826,-0.32096544880009487,1.579085158778415,0.0,0.0,0.0,0.0,0.0,0.0,2.2038536071777344,0.06393957138061529,-1.7775676886187952,-0.047262016926900685,1.8873192071914673,0.9308844208717346,7.0,1.0,48.0,48.22800064086914,48.029998779296875,3.66,31.51,60.64,0.036,1.471,1.0,0,1,0
1777638300.1374314,4814.9039999999995,2.203925609588623,0.06389164924621582,-1.7775195280658167,-0.047237698231832326,1.8873192071914673,0.9308125376701355,0.0,0.0,-0.0,0.0,0.0,0.0,0.1647949367761612,5.406189441680908,-0.033627159893512726,0.7065582871437073,0.1749572902917862,0.1390686184167862,0.719500675480226,-0.5782414111818003,0.853229726328528,-0.25951554880224076,-0.32096433928576895,1.579074764744933,0.0,0.0,0.0,0.0,0.0,0.0,2.2038536071777344,0.06393957138061529,-1.7775676886187952,-0.047262016926900685,1.8873192071914673,0.9308844208717346,7.0,1.0,48.0,48.22800064086914,48.029998779296875,3.66,31.51,60.64,0.036,1.471,1.0,0,1,0
1777638300.14443,4814.911999999999,2.2038657665252686,0.06393957138061523,-1.7775195280658167,-0.04725009599794561,1.8873192071914673,0.9307885766029358,0.0,0.0,-0.0,0.0,0.0,0.0,0.1373291164636612,5.351257801055908,-0.04483621194958687,0.7088013291358948,0.2108459621667862,0.1256103664636612,0.7194818532365193,-0.5783166930013461,0.8531899225531063,-0.2594794305912597,-0.3209621242202377,1.5789883332552759,0.0,0.0,0.0,0.0,0.0,0.0,2.2038536071777344,0.06393957138061529,-1.7775676886187952,-0.047262016926900685,1.8873192071914673,0.9308844208717346,7.0,1.0,48.0,48.22800064086914,48.029998779296875,3.66,31.51,60.64,0.036,1.471,1.0,0,1,0
1777638300.151826,4814.92,2.203913688659668,0.06393957138061523,-1.7775195280658167,-0.04725009599794561,1.8872712850570679,0.9307885766029358,0.0,0.0,-0.0,0.0,0.0,0.0,0.1739502102136612,5.378723621368408,-0.051561642438173294,0.7738495469093323,0.2130890041589737,0.1256103664636612,0.7195148341452016,-0.5782791488286954,0.8531864178500693,-0.25946611854047286,-0.32091761100837085,1.5790353640848749,0.0,0.0,0.0,0.0,0.0,0.0,2.2038536071777344,0.06393957138061529,-1.7775676886187952,-0.047262016926900685,1.8873192071914673,0.9308844208717346,7.0,1.0,48.0,48.22800064086914,48.029998779296875,3.66,31.51,60.64,0.036,1.471,1.0,0,1,0
1777638300.1606617,4814.928,2.2038657665252686,0.06391561031341553,-1.7775076071368616,-0.047237698231832326,1.887331247329712,0.9308364987373352,0.0,0.0,-0.0,0.0,0.0,0.0,0.1235962063074112,5.369568347930908,-0.022418105974793434,0.7065582871437073,0.1839294582605362,0.1413116604089737,0.7194837386537757,-0.5783003980071937,0.8532074467327336,-0.259490261589866,-0.3209712938259356,1.5790356500074545,0.0,0.0,0.0,0.0,0.0,0.0,2.2038536071777344,0.06393957138061529,-1.7775676886187952,-0.047262016926900685,1.8873192071914673,0.9308844208717346,7.0,1.0,48.0,48.22800064086914,48.06100082397461,3.66,31.51,60.64,0.036,1.471,1.0,0,1,0
1777638300.1665022,4814.936,2.2038896083831787,0.06395161151885986,-1.7774956862079065,-0.04727393785585576,1.8873192071914673,0.9308005571365356,0.0,0.0,-0.0,0.0,0.0,0.0,0.2197265923023224,5.401611804962158,-0.06277069449424744,0.7402039170265198,0.1996307522058487,0.1906585842370987,0.7195104292484515,-0.5783143605307671,0.8531819210528754,-0.2594656410388394,-0.3209674138874119,1.5790223203784761,0.0,0.0,0.0,0.0,0.0,0.0,2.2038536071777344,0.06393957138061529,-1.7775676886187952,-0.047262016926900685,1.8873192071914673,0.9308844208717346,7.0,1.0,48.0,48.22800064086914,48.06100082397461,3.66,31.51,60.64,0.036,1.471,1.0,0,1,0
1777638300.1839604,4814.9439999999995,2.2038536071777344,0.06390368938446045,-1.7774956862079065,-0.047262016926900685,1.887343168258667,0.9308364987373352,0.0,0.0,-0.0,0.0,0.0,0.0,0.1419067531824112,5.378723621368408,-0.01569267362356186,0.7379608750343323,0.1996307522058487,0.1480407863855362,0.719472787982744,-0.5783064081926608,0.8532244318548869,-0.2595202551286611,-0.32097827417890795,1.5790262739406609,0.0,0.0,0.0,0.0,0.0,0.0,2.2038536071777344,0.06393957138061529,-1.7775676886187952,-0.047262016926900685,1.8873192071914673,0.9308844208717346,7.0,1.0,48.0,48.22800064086914,48.06100082397461,3.66,31.51,60.64,0.036,1.471,1.0,0,1,0
1777638300.1841063,4814.952,2.203901529312134,0.06391561031341553,-1.7775076071368616,-0.04725009599794561,1.887343168258667,0.9308125376701355,0.0,0.0,-0.0,0.0,0.0,0.0,0.1876831203699112,5.383301258087158,-0.04483621194958687,0.6751556992530823,0.2041168361902237,0.1233673244714737,0.7194983278442175,-0.5782796366259754,0.8532112589768227,-0.2594965151153944,-0.32099065141598526,1.579048600539689,0.0,0.0,0.0,0.0,0.0,0.0,2.2038536071777344,0.06393957138061529,-1.7775676886187952,-0.047262016926900685,1.8873192071914673,0.9308844208717346,7.0,1.0,48.0,48.22800064086914,48.06100082397461,3.66,31.51,60.64,0.036,1.471,1.0,0,1,0
1777638300.1974363,4814.96,2.203913688659668,0.06395161151885986,-1.7775195280658167,-0.04727393785585576,1.8873192071914673,0.9308125376701355,0.0,0.0,-0.0,0.0,0.0,0.0,0.1602173000574112,5.397034168243408,-0.05828707292675972,0.7088013291358948,0.2377624809741974,0.1525268703699112,0.719515197236408,-0.5782793018641693,0.8531894004002603,-0.2594911105534372,-0.3209665132984769,1.5790603140994999,0.0,0.0,0.0,0.0,0.0,0.0,2.2038536071777344,0.06393957138061529,-1.7775676886187952,-0.047262016926900685,1.8873192071914673,0.9308844208717346,7.0,1.0,48.0,48.22800064086914,48.06100082397461,3.66,31.51,60.64,0.036,1.471,1.0,0,1,0
1777638300.1975899,4814.968,2.203913688659668,0.06392765045166016,-1.7775557676898401,-0.047237698231832326,1.8873072862625122,0.9307885766029358,0.0,0.0,-0.0,0.0,0.0,0.0,0.1785278469324112,5.374145984649658,-0.033627159893512726,0.6706696152687073,0.1861725002527237,0.1076660305261612,0.7194908071029213,-0.5782541836682168,0.8532053636603818,-0.25951079503246505,-0.32095115367571714,1.5790392531794792,0.0,0.0,0.0,0.0,0.0,0.0,2.2038536071777344,0.06393957138061529,-1.7775676886187952,-0.047262016926900685,1.8873192071914673,0.9308844208717346,7.0,1.0,48.01499938964844,48.22800064086914,48.06100082397461,3.66,31.51,60.64,0.036,1.471,1.0,0,1,0
1777638300.205619,4814.976,2.2038896083831787,0.06390368938446045,-1.7775195280658167,-0.04721385637392217,1.8872952461242676,0.9308245182037354,0.0,0.0,-0.0,0.0,0.0,0.0,0.2014160305261612,5.378723621368408,-0.053803451359272,0.7828217148780823,0.1592559963464737,0.1413116604089737,0.7194921515408008,-0.5782735133819629,0.8532093587702742,-0.2594794008985252,-0.32093664991820536,1.579047256123424,0.0,0.0,0.0,0.0,0.0,0.0,2.2038536071777344,0.06393957138061529,-1.7775676886187952,-0.047262016926900685,1.8873192071914673,0.9308844208717346,7.0,1.0,48.01499938964844,48.22800064086914,48.06100082397461,3.66,31.51,60.64,0.036,1.471,1.0,0,1,0
1777638300.2094953,4814.9839999999995,2.203901529312134,0.06390368938446045,-1.7775195280658167,-0.04728585878481084,1.8873072862625122,0.9308125376701355,0.0,0.0,-0.0,0.0,0.0,0.0,0.1510620266199112,5.369568347930908,-0.051561642438173294,0.7289887070655823,0.2198181450366974,0.1121521145105362,0.7194874898801185,-0.5782573811865196,0.85323560092917,-0.2595563419435652,-0.3209410618327922,1.5790546741413485,0.0,0.0,0.0,0.0,0.0,0.0,2.2038536071777344,0.06393957138061529,-1.7775676886187952,-0.047262016926900685,1.8873192071914673,0.9308844208717346,7.0,1.0,48.01499938964844,48.2130012512207,48.06100082397461,3.66,31.51,60.64,0.036,1.471,1.0,0,1,0
1777638300.2166598,4814.992,2.2038896083831787,0.06391561031341553,-1.7775195280658167,-0.047262016926900685,1.8873192071914673,0.9308005571365356,0.0,0.0,-0.0,0.0,0.0,0.0,0.1556396633386612,5.387878894805908,-0.04707802087068558,0.7020722031593323,0.1816864162683487,0.1659851223230362,0.7194855905568425,-0.578280554912543,0.8532164034698643,-0.2595181122640656,-0.3209591628290429,1.5790274302455614,0.0,0.0,0.0,0.0,0.0,0.0,2.2038536071777344,0.06393957138061529,-1.7775676886187952,-0.047262016926900685,1.8873192071914673,0.9308844208717346,7.0,1.0,48.01499938964844,48.2130012512207,48.06100082397461,3.66,31.51,60.64,0.036,1.471,1.0,0,1,0
1777638300.2250986,4815.0,2.2038896083831787,0.06392765045166016,-1.7775076071368616,-0.04725009599794561,1.8873192071914673,0.9307765960693359,0.0,0.0,-0.0,0.0,0.0,0.0,0.1739502102136612,5.374145984649658,-0.02914353646337986,0.7065582871437073,0.2108459621667862,0.1547699123620987,0.719494277964865,-0.5783029788397974,0.8531964258870649,-0.2594740975263154,-0.3209672875225745,1.5790000656388867,0.0,0.0,0.0,0.0,0.0,0.0,2.2038536071777344,0.06393957138061529,-1.7775676886187952,-0.047262016926900685,1.8873192071914673,0.9308844208717346,7.0,1.0,48.01499938964844,48.2130012512207,48.04600143432617,3.66,31.51,60.64,0.036,1.471,1.0,0,1,0
1777638300.2308102,4815.008,2.203901529312134,0.06392765045166016,-1.7774956862079065,-0.047262016926900685,1.8873192071914673,0.9307885766029358,0.0,0.0,-0.0,0.0,0.0,0.0,0.1373291164636612,5.319214344024658,-0.035868968814611435,0.7402039170265198,0.2377624809741974,0.1413116604089737,0.7195068087072172,-0.5782967498675003,0.8531981852326214,-0.2594749697645085,-0.3209683890860375,1.5790236078070146,0.0,0.0,0.0,0.0,0.0,0.0,2.2038536071777344,0.06393957138061529,-1.7775676886187952,-0.047262016926900685,1.8873192071914673,0.9308844208717346,7.0,1.0,48.01499938964844,48.2130012512207,48.04600143432617,3.66,31.51,60.64,0.036,1.471,1.0,0,1,0
1777638300.2322454,4815.008,2.203901529312134,0.06392765045166016,-1.7774956862079065,-0.047262016926900685,1.8873192071914673,0.9307885766029358,0.0,0.0,-0.0,0.0,0.0,0.0,0.1373291164636612,5.319214344024658,-0.035868968814611435,0.7402039170265198,0.2377624809741974,0.1413116604089737,0.7195068087072172,-0.5782967498675003,0.8531981852326214,-0.2594749697645085,-0.3209683890860375,1.5790236078070146,0.0,0.0,0.0,0.0,0.0,0.0,2.2038536071777344,0.06393957138061529,-1.7775676886187952,-0.047262016926900685,1.8873192071914673,0.9308844208717346,7.0,1.0,48.01499938964844,48.2130012512207,48.04600143432617,3.69,31.56,60.65,0.038,1.472,1.001,0,0,1
1777638300.2380633,4815.016,2.2038896083831787,0.06393957138061523,-1.7775195280658167,-0.04721385637392217,1.887343168258667,0.9307641983032227,0.0,0.0,-0.0,0.0,0.0,0.0,0.1419067531824112,5.392456531524658,-0.04259439930319786,0.6841278672218323,0.1682281643152237,0.1435547024011612,0.7194939626819163,-0.5783130934847076,0.8531769284327314,-0.2594356116278704,-0.3210008025960366,1.5789841521788879,0.0,0.0,0.0,0.0,0.0,0.0,2.2038536071777344,0.06393957138061529,-1.7775676886187952,-0.047262016926900685,1.8873192071914673,0.9308844208717346,7.0,1.0,48.01499938964844,48.2130012512207,48.04600143432617,3.69,31.56,60.65,0.038,1.472,1.001,0,1,0
1777638300.2450633,4815.023999999999,2.2038776874542236,0.06391561031341553,-1.7775076071368616,-0.04725009599794561,1.8872952461242676,0.9308245182037354,0.0,0.0,-0.0,0.0,0.0,0.0,0.1876831203699112,5.392456531524658,-0.053803451359272,0.7267456650733948,0.2287903130054474,0.1570129543542862,0.719491460569774,-0.5782906403246729,0.8532085344554134,-0.25949450319372175,-0.32093262850908305,1.579036736873673,0.0,0.0,0.0,0.0,0.0,0.0,2.2038536071777344,0.06393957138061529,-1.7775676886187952,-0.047262016926900685,1.8873192071914673,0.9308844208717346,7.0,1.0,48.01499938964844,48.2130012512207,48.04600143432617,3.69,31.56,60.65,0.038,1.472,1.001,0,1,0
1777638300.2536128,4815.032,2.203901529312134,0.06393957138061523,-1.7774956862079065,-0.047262016926900685,1.887331247329712,0.9308125376701355,0.0,0.0,-0.0,0.0,0.0,0.0,0.2014160305261612,5.387878894805908,-0.026901725679636,0.7222595810890198,0.2086029201745987,0.1502838283777237,0.719513905508123,-0.5782983171706253,0.8531899934676946,-0.25946846270613466,-0.32098166050871957,1.5790459753486126,0.0,0.0,0.0,0.0,0.0,0.0,2.2038536071777344,0.06393957138061529,-1.7775676886187952,-0.047262016926900685,1.8873192071914673,0.9308844208717346,7.0,1.0,48.01499938964844,48.2130012512207,48.04600143432617,3.69,31.56,60.65,0.038,1.472,1.001,0,1,0
1777638300.2604942,4815.04,2.203913688659668,0.06389164924621582,-1.7774837652789515,-0.047237698231832326,1.8872952461242676,0.9308125376701355,0.0,0.0,-0.0,0.0,0.0,0.0,0.1739502102136612,5.369568347930908,-0.04483621194958687,0.7850647568702698,0.1772003322839737,0.1502838283777237,0.7195126311547944,-0.5782704257204856,0.8532179267391821,-0.2594741849409905,-0.32094193820955286,1.5790592283937424,0.0,0.0,0.0,0.0,0.0,0.0,2.2038536071777344,0.06393957138061529,-1.7775676886187952,-0.047262016926900685,1.8873192071914673,0.9308844208717346,7.0,1.0,48.01499938964844,48.2130012512207,48.04600143432617,3.69,31.56,60.65,0.038,1.472,1.001,0,1,0
1777638300.2697434,4815.048,2.2038776874542236,0.06391561031341553,-1.7775314489947718,-0.047237698231832326,1.887343168258667,0.9308005571365356,0.0,0.0,-0.0,0.0,0.0,0.0,0.1647949367761612,5.392456531524658,-0.05604526400566101,0.7245026230812073,0.1973877102136612,0.1323394924402237,0.7194735557230514,-0.5782871945963867,0.8532126753669838,-0.25950966770296063,-0.32098552196205393,1.5790145001846432,0.0,0.0,0.0,0.0,0.0,0.0,2.2038536071777344,0.06393957138061529,-1.7775676886187952,-0.047262016926900685,1.8873192071914673,0.9308844208717346,7.0,1.0,47.97100067138672,48.2130012512207,48.04600143432617,3.69,31.56,60.65,0.038,1.472,1.001,0,1,0
1777638300.2743125,4815.056,2.2038657665252686,0.06393957138061523,-1.7775195280658167,-0.04725009599794561,1.887343168258667,0.9307765960693359,0.0,0.0,-0.0,0.0,0.0,0.0,0.1190185695886612,5.351257801055908,-0.051561642438173294,0.7155304551124573,0.2243042290210724,0.1233673244714737,0.71947756692779,-0.5783213110793661,0.8531908942639619,-0.2594807474802551,-0.32098957356032043,1.57897662008915,0.0,0.0,0.0,0.0,0.0,0.0,2.2038536071777344,0.06393957138061529,-1.7775676886187952,-0.047262016926900685,1.8873192071914673,0.9308844208717346,7.0,1.0,47.97100067138672,48.22800064086914,48.04600143432617,3.69,31.56,60.65,0.038,1.472,1.001,0,1,0
1777638300.2875223,4815.063999999999,2.2038657665252686,0.06390368938446045,-1.7775195280658167,-0.04722577730287725,1.8873552083969116,0.9308005571365356,0.0,0.0,-0.0,0.0,0.0,0.0,0.1876831203699112,5.360413074493408,-0.06501250714063644,0.7446900010108948,0.2041168361902237,0.1413116604089737,0.7194670478009468,-0.5782987841585161,0.8532165114764848,-0.25949992078003775,-0.3209986981384678,1.5790016180426072,0.0,0.0,0.0,0.0,0.0,0.0,2.2038536071777344,0.06393957138061529,-1.7775676886187952,-0.047262016926900685,1.8873192071914673,0.9308844208717346,7.0,1.0,47.97100067138672,48.22800064086914,48.04600143432617,3.69,31.56,60.65,0.038,1.472,1.001,0,1,0
1777638300.2883997,4815.072,2.203913688659668,0.06390368938446045,-1.7775314489947718,-0.04727393785585576,1.8873552083969116,0.9308125376701355,0.0,0.0,-0.0,0.0,0.0,0.0,0.1327514797449112,5.337524890899658,-0.049319833517074585,0.7200165390968323,0.1951446682214737,0.1368255764245987,0.7194852685616517,-0.5782462629340548,0.8532381264600203,-0.2595621534013217,-0.3209959763557521,1.579066836512146,0.0,0.0,0.0,0.0,0.0,0.0,2.2038536071777344,0.06393957138061529,-1.7775676886187952,-0.047262016926900685,1.8873192071914673,0.9308844208717346,7.0,1.0,47.97100067138672,48.22800064086914,48.04600143432617,3.69,31.56,60.65,0.038,1.472,1.001,0,1,0
1777638300.295496,4815.08,2.203901529312134,0.06391561031341553,-1.7774956862079065,-0.047262016926900685,1.8873192071914673,0.9307641983032227,0.0,0.0,-0.0,0.0,0.0,0.0,0.1647949367761612,5.378723621368408,-0.05828707292675972,0.7132874131202698,0.1951446682214737,0.1390686184167862,0.7194982795187851,-0.578295990112158,0.8532073366346233,-0.2594833685784497,-0.3209684115323472,1.5790008867641807,0.0,0.0,0.0,0.0,0.0,0.0,2.2038536071777344,0.06393957138061529,-1.7775676886187952,-0.047262016926900685,1.8873192071914673,0.9308844208717346,7.0,1.0,47.97100067138672,48.22800064086914,48.04600143432617,3.69,31.56,60.65,0.038,1.472,1.001,0,1,0
1777638300.3029714,4815.088,2.203937530517578,0.06395161151885986,-1.7775195280658167,-0.04728585878481084,1.887331247329712,0.9308125376701355,0.0,0.0,-0.0,0.0,0.0,0.0,0.1419067531824112,5.397034168243408,-0.053803451359272,0.7088013291358948,0.1637420803308487,0.1323394924402237,0.7195262403387367,-0.5782610279203477,0.8531946091312741,-0.25950304879199937,-0.3209819591591281,1.579085076910572,0.0,0.0,0.0,0.0,0.0,0.0,2.2038536071777344,0.06393957138061529,-1.7775676886187952,-0.047262016926900685,1.8873192071914673,0.9308844208717346,7.0,1.0,47.97100067138672,48.22800064086914,48.04600143432617,3.69,31.56,60.65,0.038,1.472,1.001,0,1,0
1777638300.310407,4815.096,2.2038776874542236,0.06390368938446045,-1.7775076071368616,-0.047262016926900685,1.887343168258667,0.9308245182037354,0.0,0.0,-0.0,0.0,0.0,0.0,0.1647949367761612,5.387878894805908,-0.05828707292675972,0.7424469590187073,0.2243042290210724,0.1121521145105362,0.7194796565174416,-0.5782848454902224,0.8532270004785822,-0.2595279612886673,-0.3209814555565633,1.5790394283368627,0.0,0.0,0.0,0.0,0.0,0.0,2.2038536071777344,0.06393957138061529,-1.7775676886187952,-0.047262016926900685,1.8873192071914673,0.9308844208717346,7.0,1.0,47.97100067138672,48.22800064086914,48.04600143432617,3.69,31.56,60.65,0.038,1.472,1.001,0,1,0
1777638300.3173258,4815.103999999999,2.2038657665252686,0.06390368938446045,-1.7775076071368616,-0.047237698231832326,1.887343168258667,0.9307885766029358,0.0,0.0,-0.0,0.0,0.0,0.0,0.1968383938074112,5.401611804962158,-0.02914353646337986,0.7177734971046448,0.2153320610523224,0.1435547024011612,0.7194707032949558,-0.5783065344866959,0.8532158296109958,-0.25949573416952126,-0.32098649632607446,1.578989766927966,0.0,0.0,0.0,0.0,0.0,0.0,2.2038536071777344,0.06393957138061529,-1.7775676886187952,-0.047262016926900685,1.8873192071914673,0.9308844208717346,7.0,1.0,47.97100067138672,48.22800064086914,48.04600143432617,3.69,31.56,60.65,0.038,1.472,1.001,0,1,0
1777638300.4121144,4815.112,2.203913688659668,0.06390368938446045,-1.7774837652789515,-0.04725009599794561,1.8873552083969116,0.9308125376701355,0.0,0.0,-0.0,0.0,0.0,0.0,0.1876831203699112,5.374145984649658,-0.038110777735710144,0.6975861191749573,0.2175751030445099,0.1435547024011612,0.7195097298684817,-0.578279334783083,0.8532160740837789,-0.25948377226514685,-0.32100806924427916,1.5790594365332853,0.0,0.0,0.0,0.0,0.0,0.0,2.2038536071777344,0.06393957138061529,-1.7775676886187952,-0.047262016926900685,1.8873192071914673,0.9308844208717346,7.0,1.0,47.97100067138672,48.22800064086914,48.04600143432617,3.69,31.56,60.65,0.038,1.472,1.001,0,1,0
1777638300.4135764,4815.12,2.2038896083831787,0.06392765045166016,-1.7774837652789515,-0.047237698231832326,1.887343168258667,0.9308364987373352,0.0,0.0,-0.0,0.0,0.0,0.0,0.1007080152630806,5.387878894805908,-0.06277069449424744,0.7514191269874573,0.2332763969898224,0.1637420803308487,0.7195121921948229,-0.5783056921660173,0.8531908805198223,-0.25944980849616206,-0.3209947173512758,1.5790554171823141,0.0,0.0,0.0,0.0,0.0,0.0,2.2038536071777344,0.06393957138061529,-1.7775676886187952,-0.047262016926900685,1.8873192071914673,0.9308844208717346,7.0,1.0,48.01499938964844,48.22800064086914,48.04600143432617,3.69,31.56,60.65,0.038,1.472,1.001,0,1,0
1777638300.413621,4815.128,2.2038896083831787,0.06392765045166016,-1.7775195280658167,-0.04727393785585576,1.8872833251953125,0.9308245182037354,0.0,0.0,-0.0,0.0,0.0,0.0,0.1327514797449112,5.374145984649658,-0.038110777735710144,0.7312317490577698,0.2108459621667862,0.1121521145105362,0.71949658598555,-0.578277238548191,0.8532089286808825,-0.25951720696849534,-0.32091762288074455,1.5790508364442455,0.0,0.0,0.0,0.0,0.0,0.0,2.2038536071777344,0.06393957138061529,-1.7775676886187952,-0.047262016926900685,1.8873192071914673,0.9308844208717346,7.0,1.0,48.01499938964844,48.25899887084961,48.04600143432617,3.69,31.56,60.65,0.038,1.472,1.001,0,1,0
1777638300.4136493,4815.1359999999995,2.203913688659668,0.06393957138061523,-1.7775314489947718,-0.04721385637392217,1.887331247329712,0.9308125376701355,0.0,0.0,-0.0,0.0,0.0,0.0,0.1464843899011612,5.364990711212158,-0.05828707292675972,0.7110443711280823,0.1996307522058487,0.1480407863855362,0.7195104604747973,-0.5782752307275876,0.8531825554249458,-0.25945333076445937,-0.3209856800128114,1.57905668564589,0.0,0.0,0.0,0.0,0.0,0.0,2.2038536071777344,0.06393957138061529,-1.7775676886187952,-0.047262016926900685,1.8873192071914673,0.9308844208717346,7.0,1.0,48.01499938964844,48.25899887084961,48.04600143432617,3.69,31.56,60.65,0.038,1.472,1.001,0,1,0
1777638300.4151604,4815.144,2.2038776874542236,0.06390368938446045,-1.7775433699237269,-0.047237698231832326,1.887331247329712,0.9307885766029358,0.0,0.0,-0.0,0.0,0.0,0.0,0.1922607570886612,5.355835437774658,-0.05604526400566101,0.7132874131202698,0.2444916069507599,0.1188812404870987,0.7194626932781292,-0.5782752250686028,0.8532250047618717,-0.2595316047120384,-0.320969325004862,1.5790051697762932,0.0,0.0,0.0,0.0,0.0,0.0,2.2038536071777344,0.06393957138061529,-1.7775676886187952,-0.047262016926900685,1.8873192071914673,0.9308844208717346,7.0,1.0,48.01499938964844,48.25899887084961,48.029998779296875,3.69,31.56,60.65,0.038,1.472,1.001,0,1,0
1777638300.4166622,4815.152,2.203913688659668,0.06391561031341553,-1.7775433699237269,-0.047262016926900685,1.887331247329712,0.9308005571365356,0.0,0.0,-0.0,0.0,0.0,0.0,0.1602173000574112,5.387878894805908,-0.06277069449424744,0.7155304551124573,0.2018737941980362,0.1435547024011612,0.7194873818312698,-0.5782493525792469,0.8532239818848546,-0.2595430738826428,-0.3209725655660491,1.5790536663727361,0.0,0.0,0.0,0.0,0.0,0.0,2.2038536071777344,0.06393957138061529,-1.7775676886187952,-0.047262016926900685,1.8873192071914673,0.9308844208717346,7.0,1.0,48.01499938964844,48.25899887084961,48.029998779296875,3.69,31.56,60.65,0.038,1.472,1.001,0,1,0
1777638300.4167094,4815.16,2.2038776874542236,0.06387960910797119,-1.7774837652789515,-0.047237698231832326,1.8873552083969116,0.9307765960693359,0.0,0.0,-0.0,0.0,0.0,0.0,0.1510620266199112,5.383301258087158,-0.035868968814611435,0.6886139512062073,0.2041168361902237,0.0986938551068306,0.7194750969621636,-0.5783023812657759,0.8532307097940738,-0.2594939833051633,-0.3210028143823018,1.5789898735305548,0.0,0.0,0.0,0.0,0.0,0.0,2.2038536071777344,0.06393957138061529,-1.7775676886187952,-0.047262016926900685,1.8873192071914673,0.9308844208717346,7.0,1.0,48.01499938964844,48.25899887084961,48.029998779296875,3.69,31.56,60.65,0.038,1.472,1.001,0,1,0
1777638300.4167366,4815.168,2.2038657665252686,0.06389164924621582,-1.7774718443499964,-0.047237698231832326,1.8873552083969116,0.9308364987373352,0.0,0.0,-0.0,0.0,0.0,0.0,0.1602173000574112,5.378723621368408,-0.053803451359272,0.7088013291358948,0.2108459621667862,0.1413116604089737,0.7194870361621587,-0.5783098911878779,0.8532205239664109,-0.2594809833895,-0.320999713846461,1.579034611932032,0.0,0.0,0.0,0.0,0.0,0.0,2.2038536071777344,0.06393957138061529,-1.7775676886187952,-0.047262016926900685,1.8873192071914673,0.9308844208717346,7.0,1.0,48.01499938964844,48.25899887084961,48.029998779296875,3.69,31.56,60.65,0.038,1.472,1.001,0,1,0
1777638300.4184873,4815.1759999999995,2.2038776874542236,0.06391561031341553,-1.7775195280658167,-0.04721385637392217,1.887331247329712,0.9308364987373352,0.0,0.0,-0.0,0.0,0.0,0.0,0.1785278469324112,5.374145984649658,-0.04483621194958687,0.7446900010108948,0.2063598781824112,0.1525268703699112,0.7194880683768088,-0.5782882760338477,0.8532021394949106,-0.25947569815020716,-0.3209752970785629,1.5790461668643971,0.0,0.0,0.0,0.0,0.0,0.0,2.2038536071777344,0.06393957138061529,-1.7775676886187952,-0.047262016926900685,1.8873192071914673,0.9308844208717346,7.0,1.0,48.01499938964844,48.25899887084961,48.029998779296875,3.69,31.56,60.65,0.038,1.472,1.001,0,1,0
1777638300.4186087,4815.1759999999995,2.2038776874542236,0.06391561031341553,-1.7775195280658167,-0.04721385637392217,1.887331247329712,0.9308364987373352,0.0,0.0,-0.0,0.0,0.0,0.0,0.1785278469324112,5.374145984649658,-0.04483621194958687,0.7446900010108948,0.2063598781824112,0.1525268703699112,0.7194880683768088,-0.5782882760338477,0.8532021394949106,-0.25947569815020716,-0.3209752970785629,1.5790461668643971,0.0,0.0,0.0,0.0,0.0,0.0,2.2038536071777344,0.06393957138061529,-1.7775676886187952,-0.047262016926900685,1.8873192071914673,0.9308844208717346,7.0,1.0,48.01499938964844,48.25899887084961,48.029998779296875,3.63,31.63,60.63,0.04,1.473,1.002,0,0,1
1777638300.4186795,4815.184,2.203901529312134,0.06387960910797119,-1.7775314489947718,-0.047262016926900685,1.8873192071914673,0.9308125376701355,0.0,0.0,-0.0,0.0,0.0,0.0,0.1235962063074112,5.337524890899658,-0.05828707292675972,0.7065582871437073,0.1704712063074112,0.1413116604089737,0.7194732809930784,-0.5782405194857344,0.8532526432160759,-0.25957145613135507,-0.3209520131418689,1.5790560815517805,0.0,0.0,0.0,0.0,0.0,0.0,2.2038536071777344,0.06393957138061529,-1.7775676886187952,-0.047262016926900685,1.8873192071914673,0.9308844208717346,7.0,1.0,48.01499938964844,48.25899887084961,48.029998779296875,3.63,31.63,60.63,0.04,1.473,1.002,0,1,0
1777638300.4206572,4815.192,2.2038776874542236,0.06395161151885986,-1.7774956862079065,-0.04721385637392217,1.887331247329712,0.9308245182037354,0.0,0.0,-0.0,0.0,0.0,0.0,0.1693725734949112,5.351257801055908,-0.049319833517074585,0.7626343369483948,0.1996307522058487,0.1121521145105362,0.7195126741290852,-0.578327056377747,0.8531625479593754,-0.25940780720139267,-0.3209865543012641,1.5790280227628488,0.0,0.0,0.0,0.0,0.0,0.0,2.2038536071777344,0.06393957138061529,-1.7775676886187952,-0.047262016926900685,1.8873192071914673,0.9308844208717346,7.0,1.0,48.029998779296875,48.25899887084961,48.029998779296875,3.63,31.63,60.63,0.04,1.473,1.002,0,1,0
1777638300.4207182,4815.2,2.2038776874542236,0.06390368938446045,-1.7775314489947718,-0.047237698231832326,1.887331247329712,0.9308245182037354,0.0,0.0,-0.0,0.0,0.0,0.0,0.1510620266199112,5.401611804962158,-0.04707802087068558,0.7446900010108948,0.2130890041589737,0.1682281643152237,0.7194730549878148,-0.578273290444835,0.8532239971571107,-0.2595255975954545,-0.32096828402352756,1.5790393423937157,0.0,0.0,0.0,0.0,0.0,0.0,2.2038536071777344,0.06393957138061529,-1.7775676886187952,-0.047262016926900685,1.8873192071914673,0.9308844208717346,7.0,1.0,48.029998779296875,48.24300003051758,48.029998779296875,3.63,31.63,60.63,0.04,1.473,1.002,0,1,0
1777638300.422608,4815.208,2.2038896083831787,0.06392765045166016,-1.7774956862079065,-0.047262016926900685,1.887331247329712,0.9308245182037354,0.0,0.0,-0.0,0.0,0.0,0.0,0.1419067531824112,5.378723621368408,-0.053803451359272,0.7065582871437073,0.1996307522058487,0.1480407863855362,0.7195035481973675,-0.5782968388198544,0.8532014071384637,-0.2594853532225422,-0.3209765203450338,1.579047316121897,0.0,0.0,0.0,0.0,0.0,0.0,2.2038536071777344,0.06393957138061529,-1.7775676886187952,-0.047262016926900685,1.8873192071914673,0.9308844208717346,7.0,1.0,48.029998779296875,48.24300003051758,48.029998779296875,3.63,31.63,60.63,0.04,1.473,1.002,0,1,0
1777638300.4226859,4815.215999999999,2.2038776874542236,0.06391561031341553,-1.7775314489947718,-0.047262016926900685,1.887331247329712,0.9307641983032227,0.0,0.0,-0.0,0.0,0.0,0.0,0.1464843899011612,5.342102527618408,-0.06949612498283386,0.7424469590187073,0.2153320610523224,0.1413116604089737,0.7194669538741593,-0.5782919436310872,0.8532182645384456,-0.25952736734676807,-0.3209714436865385,1.5789811479933773,0.0,0.0,0.0,0.0,0.0,0.0,2.2038536071777344,0.06393957138061529,-1.7775676886187952,-0.047262016926900685,1.8873192071914673,0.9308844208717346,7.0,1.0,48.029998779296875,48.24300003051758,48.04600143432617,3.63,31.63,60.63,0.04,1.473,1.002,0,1,0
1777638300.426123,4815.224,2.2038657665252686,0.06391561031341553,-1.7775076071368616,-0.04725009599794561,1.887331247329712,0.9307765960693359,0.0,0.0,-0.0,0.0,0.0,0.0,0.2014160305261612,5.360413074493408,-0.053803451359272,0.7289887070655823,0.2086029201745987,0.1278534084558487,0.719473999763878,-0.5783138632067727,0.8532080457518892,-0.2594920970946568,-0.3209743556908519,1.5789779180035832,0.0,0.0,0.0,0.0,0.0,0.0,2.2038536071777344,0.06393957138061529,-1.7775676886187952,-0.047262016926900685,1.8873192071914673,0.9308844208717346,7.0,1.0,48.029998779296875,48.24300003051758,48.04600143432617,3.63,31.63,60.63,0.04,1.473,1.002,0,1,0
1777638300.4325497,4815.232,2.2038896083831787,0.06392765045166016,-1.7775433699237269,-0.047237698231832326,1.887343168258667,0.9308125376701355,0.0,0.0,-0.0,0.0,0.0,0.0,0.1419067531824112,5.369568347930908,-0.05828707292675972,0.6863709092140198,0.2198181450366974,0.1300964504480362,0.7194818637048939,-0.5782752476870402,0.8532060657137894,-0.25951041000394376,-0.3209866009696337,1.5790379859613823,0.0,0.0,0.0,0.0,0.0,0.0,2.2038536071777344,0.06393957138061529,-1.7775676886187952,-0.047262016926900685,1.8873192071914673,0.9308844208717346,7.0,1.0,48.029998779296875,48.24300003051758,48.04600143432617,3.63,31.63,60.63,0.04,1.473,1.002,0,1,0
1777638300.4400969,4815.24,2.203901529312134,0.06390368938446045,-1.7775195280658167,-0.04722577730287725,1.8873072862625122,0.9307885766029358,0.0,0.0,-0.0,0.0,0.0,0.0,0.1922607570886612,5.378723621368408,-0.06052888557314873,0.7088013291358948,0.2108459621667862,0.1300964504480362,0.7194913443723729,-0.5782730752614262,0.8532122264533946,-0.2594857731246224,-0.320953094555825,1.5790248680223138,0.0,0.0,0.0,0.0,0.0,0.0,2.2038536071777344,0.06393957138061529,-1.7775676886187952,-0.047262016926900685,1.8873192071914673,0.9308844208717346,7.0,1.0,48.029998779296875,48.24300003051758,48.04600143432617,3.63,31.63,60.63,0.04,1.473,1.002,0,1,0
1777638300.4466584,4815.248,2.2038657665252686,0.06390368938446045,-1.7775314489947718,-0.04722577730287725,1.8873072862625122,0.9308364987373352,0.0,0.0,-0.0,0.0,0.0,0.0,0.1327514797449112,5.360413074493408,-0.02914353646337986,0.7760925889015198,0.2041168361902237,0.1457977443933487,0.7194718680496872,-0.5782791383590767,0.8532186968747322,-0.25951269802656346,-0.32094074134185496,1.5790380809968054,0.0,0.0,0.0,0.0,0.0,0.0,2.2038536071777344,0.06393957138061529,-1.7775676886187952,-0.047262016926900685,1.8873192071914673,0.9308844208717346,7.0,1.0,48.029998779296875,48.24300003051758,48.04600143432617,3.63,31.63,60.63,0.04,1.473,1.002,0,1,0
1777638300.456179,4815.255999999999,2.2038536071777344,0.06389164924621582,-1.7774956862079065,-0.047237698231832326,1.8873192071914673,0.9308125376701355,0.0,0.0,-0.0,0.0,0.0,0.0,0.1831054836511612,5.360413074493408,-0.04707802087068558,0.7155304551124573,0.1973877102136612,0.1368255764245987,0.7194698480150676,-0.5783078626082839,0.8532230283542906,-0.25949840682219993,-0.32095587750078186,1.5790013640508043,0.0,0.0,0.0,0.0,0.0,0.0,2.2038536071777344,0.06393957138061529,-1.7775676886187952,-0.047262016926900685,1.8873192071914673,0.9308844208717346,7.0,1.0,48.029998779296875,48.24300003051758,48.04600143432617,3.63,31.63,60.63,0.04,1.473,1.002,0,1,0
1777638300.4617567,4815.264,2.2038896083831787,0.06393957138061523,-1.7774956862079065,-0.04725009599794561,1.8872833251953125,0.9308245182037354,0.0,0.0,-0.0,0.0,0.0,0.0,0.1464843899011612,5.369568347930908,-0.04707802087068558,0.6863709092140198,0.1996307522058487,0.1278534084558487,0.7195153519395435,-0.5783026330686218,0.8531829406167225,-0.2594518952977557,-0.32092769299821555,1.5790446253217485,0.0,0.0,0.0,0.0,0.0,0.0,2.2038536071777344,0.06393957138061529,-1.7775676886187952,-0.047262016926900685,1.8873192071914673,0.9308844208717346,7.0,1.0,48.0,48.24300003051758,48.04600143432617,3.63,31.63,60.63,0.04,1.473,1.002,0,1,0
1777638300.4682128,4815.272,2.203901529312134,0.06391561031341553,-1.7775314489947718,-0.04721385637392217,1.8873072862625122,0.9307885766029358,0.0,0.0,-0.0,0.0,0.0,0.0,0.1464843899011612,5.378723621368408,-0.06052888557314873,0.7110443711280823,0.2175751030445099,0.1457977443933487,0.7194924756613366,-0.578274610749319,0.8532006144126294,-0.25947271274769773,-0.32095508421669916,1.579023590050847,0.0,0.0,0.0,0.0,0.0,0.0,2.2038536071777344,0.06393957138061529,-1.7775676886187952,-0.047262016926900685,1.8873192071914673,0.9308844208717346,7.0,1.0,48.0,48.2130012512207,48.04600143432617,3.63,31.63,60.63,0.04,1.473,1.002,0,1,0
1777638300.4761353,4815.28,2.203925609588623,0.06395161151885986,-1.7775195280658167,-0.047237698231832326,1.887331247329712,0.9307885766029358,0.0,0.0,-0.0,0.0,0.0,0.0,0.1556396633386612,5.355835437774658,-0.04707802087068558,0.7289887070655823,0.2018737941980362,0.1345825344324112,0.7195217808941451,-0.5782834094611419,0.8531755621290056,-0.2594470350746804,-0.3209899354425059,1.579044756463972,0.0,0.0,0.0,0.0,0.0,0.0,2.2038536071777344,0.06393957138061529,-1.7775676886187952,-0.047262016926900685,1.8873192071914673,0.9308844208717346,7.0,1.0,48.0,48.2130012512207,48.04600143432617,3.63,31.63,60.63,0.04,1.473,1.002,0,1,0
1777638300.483112,4815.288,2.2038776874542236,0.06390368938446045,-1.7774956862079065,-0.047237698231832326,1.8873192071914673,0.9308364987373352,0.0,0.0,-0.0,0.0,0.0,0.0,0.1419067531824112,5.415344715118408,-0.06277069449424744,0.7088013291358948,0.2175751030445099,0.1368255764245987,0.7194922450744982,-0.5782914048148088,0.8532138498967914,-0.2594869229546998,-0.32096008063441156,1.5790473962982745,0.0,0.0,0.0,0.0,0.0,0.0,2.2038536071777344,0.06393957138061529,-1.7775676886187952,-0.047262016926900685,1.8873192071914673,0.9308844208717346,7.0,1.0,48.0,48.2130012512207,48.029998779296875,3.63,31.63,60.63,0.04,1.473,1.002,0,1,0
1777638300.490915,4815.295999999999,2.203901529312134,0.06392765045166016,-1.7775433699237269,-0.04727393785585576,1.8873072862625122,0.9308245182037354,0.0,0.0,-0.0,0.0,0.0,0.0,0.1098632961511612,5.364990711212158,-0.05828707292675972,0.7043152451515198,0.2063598781824112,0.1278534084558487,0.7194900355999359,-0.5782555467581486,0.8532173792359368,-0.25954551048342406,-0.32094205626772304,1.5790651385232914,0.0,0.0,0.0,0.0,0.0,0.0,2.2038536071777344,0.06393957138061529,-1.7775676886187952,-0.047262016926900685,1.8873192071914673,0.9308844208717346,7.0,1.0,48.0,48.2130012512207,48.029998779296875,3.63,31.63,60.63,0.04,1.473,1.002,0,1,0
1777638300.4971635,4815.304,2.2038896083831787,0.06390368938446045,-1.7775076071368616,-0.047262016926900685,1.887343168258667,0.9308005571365356,0.0,0.0,-0.0,0.0,0.0,0.0,0.1968383938074112,5.328369617462158,-0.04035259038209915,0.6908569931983948,0.2175751030445099,0.1368255764245987,0.7194832456861191,-0.5782824407128407,0.8532254395813254,-0.25952177186039443,-0.32098557904170016,1.5790275672573806,0.0,0.0,0.0,0.0,0.0,0.0,2.2038536071777344,0.06393957138061529,-1.7775676886187952,-0.047262016926900685,1.8873192071914673,0.9308844208717346,7.0,1.0,48.0,48.2130012512207,48.029998779296875,3.63,31.63,60.63,0.04,1.473,1.002,0,1,0
1777638300.5042832,4815.312,2.203913688659668,0.06392765045166016,-1.7775433699237269,-0.04722577730287725,1.8872833251953125,0.9307641983032227,0.0,0.0,-0.0,0.0,0.0,0.0,0.1876831203699112,5.383301258087158,-0.038110777735710144,0.7200165390968323,0.2063598781824112,0.1300964504480362,0.7194971202742797,-0.5782684363539402,0.8531942123249737,-0.25947569167863216,-0.3209309075837727,1.5790126335230583,0.0,0.0,0.0,0.0,0.0,0.0,2.2038536071777344,0.06393957138061529,-1.7775676886187952,-0.047262016926900685,1.8873192071914673,0.9308844208717346,7.0,1.0,48.0,48.2130012512207,48.029998779296875,3.63,31.63,60.63,0.04,1.473,1.002,0,1,0
1777638300.5115073,4815.32,2.2038657665252686,0.06393957138061523,-1.7775433699237269,-0.047237698231832326,1.887331247329712,0.9308005571365356,0.0,0.0,-0.0,0.0,0.0,0.0,0.1647949367761612,5.364990711212158,-0.04259439930319786,0.7267456650733948,0.2153320610523224,0.1143951565027237,0.7194728499525216,-0.5783016947575222,0.8531937805996276,-0.2594961550329524,-0.3209723723159819,1.5790013697979253,0.0,0.0,0.0,0.0,0.0,0.0,2.2038536071777344,0.06393957138061529,-1.7775676886187952,-0.047262016926900685,1.8873192071914673,0.9308844208717346,7.0,1.0,48.0,48.2130012512207,48.029998779296875,3.63,31.63,60.63,0.04,1.473,1.002,0,1,0
1777638300.5192118,4815.3279999999995,2.2038896083831787,0.06392765045166016,-1.7775433699237269,-0.047262016926900685,1.8873072862625122,0.9308364987373352,0.0,0.0,-0.0,0.0,0.0,0.0,0.1876831203699112,5.383301258087158,-0.06277069449424744,0.7289887070655823,0.2130890041589737,0.1300964504480362,0.7194862148916064,-0.5782629269427412,0.8532138314670471,-0.2595362793096181,-0.3209409382914066,1.5790639668684143,0.0,0.0,0.0,0.0,0.0,0.0,2.2038536071777344,0.06393957138061529,-1.7775676886187952,-0.047262016926900685,1.8873192071914673,0.9308844208717346,7.0,1.0,48.0,48.2130012512207,48.029998779296875,3.63,31.63,60.63,0.04,1.473,1.002,0,1,0
1777638300.519828,4815.3279999999995,2.2038896083831787,0.06392765045166016,-1.7775433699237269,-0.047262016926900685,1.8873072862625122,0.9308364987373352,0.0,0.0,-0.0,0.0,0.0,0.0,0.1876831203699112,5.383301258087158,-0.06277069449424744,0.7289887070655823,0.2130890041589737,0.1300964504480362,0.7194862148916064,-0.5782629269427412,0.8532138314670471,-0.2595362793096181,-0.3209409382914066,1.5790639668684143,0.0,0.0,0.0,0.0,0.0,0.0,2.2038536071777344,0.06393957138061529,-1.7775676886187952,-0.047262016926900685,1.8873192071914673,0.9308844208717346,7.0,1.0,48.0,48.2130012512207,48.029998779296875,3.61,31.6,60.59,0.037,1.471,1.001,0,0,1
1777638300.5268362,4815.335999999999,2.2038536071777344,0.06389164924621582,-1.7775314489947718,-0.04729777971376592,1.8873192071914673,0.9308005571365356,0.0,0.0,-0.0,0.0,0.0,0.0,0.1556396633386612,5.383301258087158,-0.04259439930319786,0.7177734971046448,0.1951446682214737,0.1031799390912056,0.7194448227476815,-0.5782794549034123,0.8532541081467627,-0.2596011038759808,-0.3209408175975977,1.5789994662905154,0.0,0.0,0.0,0.0,0.0,0.0,2.2038536071777344,0.06393957138061529,-1.7775676886187952,-0.047262016926900685,1.8873192071914673,0.9308844208717346,7.0,1.0,48.0,48.2130012512207,48.029998779296875,3.61,31.6,60.59,0.037,1.471,1.001,0,1,0
1777638300.533071,4815.344,2.203901529312134,0.06392765045166016,-1.7775195280658167,-0.04722577730287725,1.8873192071914673,0.9307765960693359,0.0,0.0,-0.0,0.0,0.0,0.0,0.1785278469324112,5.383301258087158,-0.05828707292675972,0.7043152451515198,0.1816864162683487,0.1413116604089737,0.7194986644068943,-0.578290932311206,0.8531909455090403,-0.2594590113045865,-0.3209713693315629,1.5790105333371312,0.0,0.0,0.0,0.0,0.0,0.0,2.2038536071777344,0.06393957138061529,-1.7775676886187952,-0.047262016926900685,1.8873192071914673,0.9308844208717346,7.0,1.0,48.0,48.198001861572266,48.029998779296875,3.61,31.6,60.59,0.037,1.471,1.001,0,1,0
1777638300.5403461,4815.352,2.2038536071777344,0.06391561031341553,-1.7774837652789515,-0.047262016926900685,1.8873552083969116,0.9308005571365356,0.0,0.0,-0.0,0.0,0.0,0.0,0.1922607570886612,5.387878894805908,-0.026901725679636,0.7245026230812073,0.2130890041589737,0.1413116604089737,0.719477027574521,-0.5783307295661866,0.8532089886206574,-0.25948893166612674,-0.3209987012160534,1.5789883948321055,0.0,0.0,0.0,0.0,0.0,0.0,2.2038536071777344,0.06393957138061529,-1.7775676886187952,-0.047262016926900685,1.8873192071914673,0.9308844208717346,7.0,1.0,48.0,48.198001861572266,48.029998779296875,3.61,31.6,60.59,0.037,1.471,1.001,0,1,0
1777638300.5496118,4815.36,2.2038896083831787,0.06392765045166016,-1.7775195280658167,-0.04720193544496709,1.8873192071914673,0.9308484792709351,0.0,0.0,-0.0,0.0,0.0,0.0,0.0961303785443306,5.364990711212158,-0.06052888557314873,0.7200165390968323,0.2041168361902237,0.1659851223230362,0.7195045248759399,-0.578284771329116,0.8531869717556622,-0.2594484672954339,-0.32096711207977346,1.5790671426743905,0.0,0.0,0.0,0.0,0.0,0.0,2.2038536071777344,0.06393957138061529,-1.7775676886187952,-0.047262016926900685,1.8873192071914673,0.9308844208717346,7.0,1.0,48.0,48.198001861572266,48.06100082397461,3.61,31.6,60.59,0.037,1.471,1.001,0,1,0
1777638300.5547633,4815.3679999999995,2.2038896083831787,0.06396353244781494,-1.7774956862079065,-0.047237698231832326,1.887331247329712,0.9308364987373352,0.0,0.0,-0.0,0.0,0.0,0.0,0.1464843899011612,5.314636707305908,-0.006725431419909,0.7200165390968323,0.1884155422449112,0.1233673244714737,0.7195234955953224,-0.5783185843526168,0.8531613517084874,-0.2594217563513369,-0.3209856838156852,1.5790527484734802,0.0,0.0,0.0,0.0,0.0,0.0,2.2038536071777344,0.06393957138061529,-1.7775676886187952,-0.047262016926900685,1.8873192071914673,0.9308844208717346,7.0,1.0,48.0,48.198001861572266,48.06100082397461,3.61,31.6,60.59,0.037,1.471,1.001,0,1,0
1777638300.5618725,4815.376,2.203913688659668,0.06390368938446045,-1.7774837652789515,-0.04722577730287725,1.887343168258667,0.9307885766029358,0.0,0.0,-0.0,0.0,0.0,0.0,0.1327514797449112,5.419922351837158,-0.033627159893512726,0.7357178330421448,0.1839294582605362,0.1368255764245987,0.7195106464446345,-0.5782885906821538,0.8532048028496071,-0.2594505662999345,-0.32100087997725313,1.5790332761961625,0.0,0.0,0.0,0.0,0.0,0.0,2.2038536071777344,0.06393957138061529,-1.7775676886187952,-0.047262016926900685,1.8873192071914673,0.9308844208717346,7.0,1.0,48.0,48.198001861572266,48.06100082397461,3.61,31.6,60.59,0.037,1.471,1.001,0,1,0
1777638300.5691109,4815.384,2.203901529312134,0.06390368938446045,-1.7775195280658167,-0.04722577730287725,1.8873192071914673,0.9308245182037354,0.0,0.0,-0.0,0.0,0.0,0.0,0.1785278469324112,5.369568347930908,-0.07622155547142029,0.7110443711280823,0.2041168361902237,0.1323394924402237,0.719494990778545,-0.5782645793543966,0.8532154394914614,-0.2594946512765049,-0.32096316809916436,1.579060319687122,0.0,0.0,0.0,0.0,0.0,0.0,2.2038536071777344,0.06393957138061529,-1.7775676886187952,-0.047262016926900685,1.8873192071914673,0.9308844208717346,7.0,1.0,48.0,48.198001861572266,48.06100082397461,3.61,31.6,60.59,0.037,1.471,1.001,0,1,0
1777638300.5778596,4815.392,2.203901529312134,0.06389164924621582,-1.7775314489947718,-0.04725009599794561,1.8873192071914673,0.9308125376701355,0.0,0.0,-0.0,0.0,0.0,0.0,0.1785278469324112,5.387878894805908,-0.033627159893512726,0.7334747910499573,0.2332763969898224,0.1457977443933487,0.7194798687782006,-0.5782494485252865,0.8532375763617797,-0.2595452043177045,-0.320956056354436,1.5790535566218749,0.0,0.0,0.0,0.0,0.0,0.0,2.2038536071777344,0.06393957138061529,-1.7775676886187952,-0.047262016926900685,1.8873192071914673,0.9308844208717346,7.0,1.0,48.0,48.198001861572266,48.06100082397461,3.61,31.6,60.59,0.037,1.471,1.001,0,1,0
1777638300.5869114,4815.4,2.2038536071777344,0.06391561031341553,-1.777459446583883,-0.047237698231832326,1.8873072862625122,0.9308245182037354,0.0,0.0,-0.0,0.0,0.0,0.0,0.1922607570886612,5.383301258087158,-0.033627159893512726,0.7155304551124573,0.2063598781824112,0.1570129543542862,0.7194995226544276,-0.5783402870409478,0.8531913821718561,-0.25943299284155824,-0.32095199199226115,1.5790067921617512,0.0,0.0,0.0,0.0,0.0,0.0,2.2038536071777344,0.06393957138061529,-1.7775676886187952,-0.047262016926900685,1.8873192071914673,0.9308844208717346,7.0,1.0,48.0,48.198001861572266,48.06100082397461,3.61,31.6,60.59,0.037,1.471,1.001,0,1,0
1777638300.592364,4815.407999999999,2.203913688659668,0.06395161151885986,-1.7775433699237269,-0.04720193544496709,1.8872833251953125,0.9308484792709351,0.0,0.0,-0.0,0.0,0.0,0.0,0.1647949367761612,5.378723621368408,-0.06277069449424744,0.6931000351905823,0.1861725002527237,0.1368255764245987,0.719521866989786,-0.5782645127313298,0.8531696731273872,-0.25943985661733054,-0.3209317671723818,1.5790906242929619,0.0,0.0,0.0,0.0,0.0,0.0,2.2038536071777344,0.06393957138061529,-1.7775676886187952,-0.047262016926900685,1.8873192071914673,0.9308844208717346,7.0,1.0,48.0,48.198001861572266,48.06100082397461,3.61,31.6,60.59,0.037,1.471,1.001,0,1,0
1777638300.598284,4815.416,2.203925609588623,0.06390368938446045,-1.7774837652789515,-0.04725009599794561,1.8873192071914673,0.9308125376701355,0.0,0.0,-0.0,0.0,0.0,0.0,0.1144409328699112,5.383301258087158,-0.05828707292675972,0.6998291611671448,0.2041168361902237,0.1345825344324112,0.7195205807968895,-0.5782684552505711,0.8532134411609948,-0.2594767745579973,-0.32097043954843296,1.5790710464047466,0.0,0.0,0.0,0.0,0.0,0.0,2.2038536071777344,0.06393957138061529,-1.7775676886187952,-0.047262016926900685,1.8873192071914673,0.9308844208717346,7.0,1.0,48.0,48.22800064086914,48.06100082397461,3.61,31.6,60.59,0.037,1.471,1.001,0,1,0
1777638300.60545,4815.424,2.2038776874542236,0.06393957138061523,-1.7775314489947718,-0.047237698231832326,1.8872952461242676,0.9307885766029358,0.0,0.0,-0.0,0.0,0.0,0.0,0.1373291164636612,5.387878894805908,-0.051561642438173294,0.7424469590187073,0.1929016262292862,0.1345825344324112,0.7194874535033338,-0.5783012253036269,0.8531870181403487,-0.25947374513053106,-0.3209378003893428,1.5789999422675287,0.0,0.0,0.0,0.0,0.0,0.0,2.2038536071777344,0.06393957138061529,-1.7775676886187952,-0.047262016926900685,1.8873192071914673,0.9308844208717346,7.0,1.0,48.0,48.22800064086914,48.06100082397461,3.61,31.6,60.59,0.037,1.471,1.001,0,1,0
1777638300.6124148,4815.432,2.203901529312134,0.06391561031341553,-1.7774718443499964,-0.047237698231832326,1.8873072862625122,0.9307885766029358,0.0,0.0,-0.0,0.0,0.0,0.0,0.1281738430261612,5.392456531524658,-0.04483621194958687,0.6729126572608948,0.1861725002527237,0.1480407863855362,0.7195166592504728,-0.5783074484681964,0.8531925243711868,-0.25943354610203895,-0.3209612862204745,1.5790198786021432,0.0,0.0,0.0,0.0,0.0,0.0,2.2038536071777344,0.06393957138061529,-1.7775676886187952,-0.047262016926900685,1.8873192071914673,0.9308844208717346,7.0,1.0,48.0,48.22800064086914,48.04600143432617,3.61,31.6,60.59,0.037,1.471,1.001,0,1,0
1777638300.619834,4815.44,2.203913688659668,0.06393957138061523,-1.7775314489947718,-0.047237698231832326,1.8873072862625122,0.9308245182037354,0.0,0.0,-0.0,0.0,0.0,0.0,0.1647949367761612,5.392456531524658,-0.06949612498283386,0.7088013291358948,0.2063598781824112,0.1345825344324112,0.7195119058505144,-0.5782668342022235,0.8531902398601905,-0.25947815154685844,-0.32095426878251493,1.5790708603555181,0.0,0.0,0.0,0.0,0.0,0.0,2.2038536071777344,0.06393957138061529,-1.7775676886187952,-0.047262016926900685,1.8873192071914673,0.9308844208717346,7.0,1.0,48.0,48.22800064086914,48.04600143432617,3.61,31.6,60.59,0.037,1.471,1.001,0,1,0
1777638300.7127357,4815.447999999999,2.2038776874542236,0.06391561031341553,-1.7775076071368616,-0.047237698231832326,1.8873552083969116,0.9308245182037354,0.0,0.0,-0.0,0.0,0.0,0.0,0.1464843899011612,5.364990711212158,-0.04035259038209915,0.7043152451515198,0.2310333549976349,0.1323394924402237,0.7194863462534854,-0.5782964392989648,0.8532084187180504,-0.2594900920733026,-0.3210008173789542,1.5790356803383288,0.0,0.0,0.0,0.0,0.0,0.0,2.2038536071777344,0.06393957138061529,-1.7775676886187952,-0.047262016926900685,1.8873192071914673,0.9308844208717346,7.0,1.0,48.0,48.22800064086914,48.04600143432617,3.61,31.6,60.59,0.037,1.471,1.001,0,1,0
1777638300.712838,4815.456,2.2038776874542236,0.06391561031341553,-1.7775195280658167,-0.04727393785585576,1.887331247329712,0.9308125376701355,0.0,0.0,-0.0,0.0,0.0,0.0,0.1922607570886612,5.360413074493408,-0.05828707292675972,0.7671204209327698,0.1973877102136612,0.1143951565027237,0.7194776052306184,-0.5782849263047114,0.8532223925205817,-0.2595368620612268,-0.32096736122686187,1.579028764577636,0.0,0.0,0.0,0.0,0.0,0.0,2.2038536071777344,0.06393957138061529,-1.7775676886187952,-0.047262016926900685,1.8873192071914673,0.9308844208717346,7.0,1.0,48.0,48.22800064086914,48.04600143432617,3.61,31.6,60.59,0.037,1.471,1.001,0,1,0
1777638300.7158368,4815.464,2.2038896083831787,0.06392765045166016,-1.7775076071368616,-0.04728585878481084,1.887331247329712,0.9307885766029358,0.0,0.0,-0.0,0.0,0.0,0.0,0.1647949367761612,5.374145984649658,-0.05604526400566101,0.7020722031593323,0.1772003322839737,0.1143951565027237,0.7194903457492137,-0.5782949951045174,0.8532110714471233,-0.25951749784609357,-0.3209735990273732,1.5790156048487394,0.0,0.0,0.0,0.0,0.0,0.0,2.2038536071777344,0.06393957138061529,-1.7775676886187952,-0.047262016926900685,1.8873192071914673,0.9308844208717346,7.0,1.0,48.0,48.22800064086914,48.04600143432617,3.61,31.6,60.59,0.037,1.471,1.001,0,1,0
1777638300.715919,4815.472,2.203913688659668,0.06390368938446045,-1.7775076071368616,-0.047262016926900685,1.887331247329712,0.9308125376701355,0.0,0.0,-0.0,0.0,0.0,0.0,0.1876831203699112,5.392456531524658,-0.08294699341058731,0.7312317490577698,0.1682281643152237,0.1457977443933487,0.7195001332674592,-0.5782612667968253,0.8532253482133247,-0.2595192949905576,-0.3209755975416394,1.579063047252714,0.0,0.0,0.0,0.0,0.0,0.0,2.2038536071777344,0.06393957138061529,-1.7775676886187952,-0.047262016926900685,1.8873192071914673,0.9308844208717346,7.0,1.0,48.0,48.22800064086914,48.04600143432617,3.61,31.6,60.59,0.037,1.471,1.001,0,1,0
1777638300.7159693,4815.48,2.2038776874542236,0.06389164924621582,-1.7775314489947718,-0.047262016926900685,1.8872952461242676,0.9307765960693359,0.0,0.0,-0.0,0.0,0.0,0.0,0.1373291164636612,5.387878894805908,-0.02914353646337986,0.7245026230812073,0.1749572902917862,0.1054229810833931,0.7194623384419587,-0.5782724387863583,0.8532378111843475,-0.2595505249513836,-0.32092657613109626,1.578995802394585,0.0,0.0,0.0,0.0,0.0,0.0,2.2038536071777344,0.06393957138061529,-1.7775676886187952,-0.047262016926900685,1.8873192071914673,0.9308844208717346,7.0,1.0,48.0,48.22800064086914,48.04600143432617,3.61,31.6,60.59,0.037,1.471,1.001,0,1,0
1777638300.7191906,4815.487999999999,2.2038776874542236,0.06393957138061523,-1.7775433699237269,-0.04722577730287725,1.887331247329712,0.9308005571365356,0.0,0.0,-0.0,0.0,0.0,0.0,0.1785278469324112,5.374145984649658,-0.02914353646337986,0.6886139512062073,0.2041168361902237,0.1413116604089737,0.71948116411431,-0.5782950071289044,0.8531894523845522,-0.2594815995354123,-0.32097642733560333,1.57901188276211,0.0,0.0,0.0,0.0,0.0,0.0,2.2038536071777344,0.06393957138061529,-1.7775676886187952,-0.047262016926900685,1.8873192071914673,0.9308844208717346,7.0,1.0,48.0,48.22800064086914,48.04600143432617,3.61,31.6,60.59,0.037,1.471,1.001,0,1,0
1777638300.721597,4815.487999999999,2.2038776874542236,0.06393957138061523,-1.7775433699237269,-0.04722577730287725,1.887331247329712,0.9308005571365356,0.0,0.0,-0.0,0.0,0.0,0.0,0.1785278469324112,5.374145984649658,-0.02914353646337986,0.6886139512062073,0.2041168361902237,0.1413116604089737,0.71948116411431,-0.5782950071289044,0.8531894523845522,-0.2594815995354123,-0.32097642733560333,1.57901188276211,0.0,0.0,0.0,0.0,0.0,0.0,2.2038536071777344,0.06393957138061529,-1.7775676886187952,-0.047262016926900685,1.8873192071914673,0.9308844208717346,7.0,1.0,48.0,48.22800064086914,48.04600143432617,3.63,31.54,60.56,0.033,1.473,1.002,0,0,1
1777638300.7216694,4815.496,2.203913688659668,0.06391561031341553,-1.7775076071368616,-0.04725009599794561,1.8872952461242676,0.9308125376701355,0.0,0.0,-0.0,0.0,0.0,0.0,0.1647949367761612,5.351257801055908,-0.053803451359272,0.7446900010108948,0.2108459621667862,0.1727142482995987,0.7195106270506852,-0.5782678234975325,0.8532077541261207,-0.2594876627450471,-0.3209399164426319,1.5790604004147721,0.0,0.0,0.0,0.0,0.0,0.0,2.2038536071777344,0.06393957138061529,-1.7775676886187952,-0.047262016926900685,1.8873192071914673,0.9308844208717346,7.0,1.0,48.0,48.22800064086914,48.04600143432617,3.63,31.54,60.56,0.033,1.473,1.002,0,1,0
1777638300.7217185,4815.504,2.203913688659668,0.06386768817901611,-1.7775076071368616,-0.04725009599794561,1.887331247329712,0.9308484792709351,0.0,0.0,-0.0,0.0,0.0,0.0,0.1602173000574112,5.374145984649658,-0.051561642438173294,0.7648773789405823,0.2153320610523224,0.1547699123620987,0.7194910593840722,-0.5782328487550099,0.8532554719470182,-0.2595526986153525,-0.32096833801438895,1.579101095029048,0.0,0.0,0.0,0.0,0.0,0.0,2.2038536071777344,0.06393957138061529,-1.7775676886187952,-0.047262016926900685,1.8873192071914673,0.9308844208717346,7.0,1.0,48.0,48.22800064086914,48.029998779296875,3.63,31.54,60.56,0.033,1.473,1.002,0,1,0
1777638300.7237117,4815.512,2.203901529312134,0.06391561031341553,-1.7775076071368616,-0.04728585878481084,1.8872952461242676,0.9308245182037354,0.0,0.0,-0.0,0.0,0.0,0.0,0.2105713039636612,5.383301258087158,-0.03138534724712372,0.7424469590187073,0.2041168361902237,0.1502838283777237,0.7195009866295863,-0.5782678184341742,0.8532215188387112,-0.25953073645755753,-0.3209308335255128,1.5790639153981705,0.0,0.0,0.0,0.0,0.0,0.0,2.2038536071777344,0.06393957138061529,-1.7775676886187952,-0.047262016926900685,1.8873192071914673,0.9308844208717346,7.0,1.0,48.0,48.22800064086914,48.029998779296875,3.63,31.54,60.56,0.033,1.473,1.002,0,1,0
